;FLAVOR:Marlin
;TIME:15269
;Filament used: 8.83221m
;Layer height: 0.2
;MINX:38.542
;MINY:52.566
;MINZ:0.2
;MAXX:181.572
;MAXY:167.568
;MAXZ:4.2
;Generated with Cura_SteamEngine 4.8.0
M140 S60
M105
M190 S60
M104 S200
M105
M109 S200
M82 ;absolute extrusion mode
; Ender 3 Custom Start G-code
G92 E0 ; Reset Extruder
G28 ; Home all axes
G1 Z2.0 F3000 ; Move Z Axis up little to prevent scratching of Heat Bed
G1 X0.1 Y20 Z0.3 F5000.0 ; Move to start position
G1 X0.1 Y200.0 Z0.3 F1500.0 E15 ; Draw the first line
G1 X0.4 Y200.0 Z0.3 F5000.0 ; Move to side a little
G1 X0.4 Y20 Z0.3 F1500.0 E30 ; Draw the second line
G92 E0 ; Reset Extruder
G1 Z2.0 F3000 ; Move Z Axis up little to prevent scratching of Heat Bed
G1 X5 Y20 Z0.3 F5000.0 ; Move over to prevent blob squish
G92 E0
G92 E0
G1 F1500 E-6.5
;LAYER_COUNT:21
;LAYER:0
M107
;MESH:sofle04.stl
G0 F6000 X78.879 Y85.424 Z0.2
;TYPE:WALL-INNER
G1 F1500 E0
G1 F900 X85.104 Y70.763 E0.52976
G1 X85.13 Y70.701 E0.532
G1 X80.661 Y68.805 E0.69346
G1 X70.402 Y64.451 E1.06414
G1 X64.226 Y78.994 E1.58965
G1 X64.149 Y79.177 E1.59625
G1 X64.332 Y79.254 E1.60052
G1 X78.879 Y85.424 E2.12608
G0 F6000 X78.667 Y84.9
G1 F900 X84.528 Y71.096 E2.62487
G1 X84.605 Y70.913 E2.63147
G1 X84.422 Y70.836 E2.63574
G1 X70.614 Y64.975 E3.13466
G1 X64.751 Y78.782 E3.63357
G1 X64.674 Y78.965 E3.64017
G1 X64.857 Y79.042 E3.64444
G1 X78.667 Y84.9 E4.14338
G0 F6000 X78.455 Y84.376
;TYPE:WALL-OUTER
G1 F900 X84.08 Y71.125 E4.62217
G1 X70.826 Y65.499 E5.10107
G1 X65.199 Y78.753 E5.57999
G1 X78.455 Y84.376 E6.05891
G1 F1500 E-0.44109
G0 F6000 X78.376 Y84.559
G0 X63.386 Y79.486
G0 X69.921 Y64.096
G0 X53.338 Y54.463
G0 X40.428 Y76.72
G0 X48.345 Y81.384
G0 X48.351 Y89
G0 X66.135 Y89
G0 X65.153 Y103.787
;TYPE:WALL-INNER
G1 F1500 E6.05891
G1 F900 X65.153 Y89.982 E6.51807
G1 X48.134 Y89.982 E7.08412
G1 X47.934 Y89.982 E7.09077
G1 X47.934 Y90.182 E7.09508
G1 X47.973 Y103.787 E7.54759
G1 X65.153 Y103.787 E8.11899
G0 F6000 X64.753 Y103.387
;TYPE:WALL-OUTER
G1 F900 X64.753 Y90.382 E8.55154
G1 X48.335 Y90.382 E9.09761
G1 X48.372 Y103.387 E9.53016
G1 X64.753 Y103.387 E10.07499
G1 F1500 E3.57499
G0 F6000 X64.953 Y103.387
G0 X64.881 Y90.254
G0 X48.351 Y89
G0 X48.345 Y81.384
G0 X40.428 Y76.72
G0 X42.414 Y73.297
G0 X56.865 Y80.509
;TYPE:WALL-INNER
G1 F1500 E10.07499
G1 F900 X64.667 Y67.004 E10.59374
G1 X64.321 Y66.805 E10.60701
G1 X50.813 Y59.005 E11.12582
G1 X50.614 Y59.351 E11.13909
G1 X42.813 Y72.856 E11.65782
G1 X43.159 Y73.055 E11.6711
G1 X56.666 Y80.855 E12.18987
G1 X56.865 Y80.509 E12.20314
G0 F6000 X56.52 Y80.309
G1 F900 X64.121 Y67.15 E12.70858
G1 X50.959 Y59.551 E13.21407
G1 X43.359 Y72.71 E13.7195
G1 X56.52 Y80.309 E14.22496
G0 F6000 X56.374 Y79.763
;TYPE:WALL-OUTER
G1 F900 X63.575 Y67.296 E14.70381
G1 X51.105 Y60.097 E15.18272
G1 X43.905 Y72.564 E15.66156
G1 X56.374 Y79.763 E16.14044
G1 F1500 E9.64044
G0 F6000 X56.272 Y79.934
G0 X56.889 Y81.688
G0 X57.575 Y81.832
G0 X59.195 Y83.713
G0 X61.014 Y85.165
;TYPE:WALL-INNER
G1 F1500 E16.14044
G1 F900 X61.661 Y84.892 E16.16379
G1 X62.196 Y84.48 E16.18625
G1 X62.614 Y83.949 E16.20873
G1 X62.888 Y83.305 E16.23201
G1 X62.982 Y82.605 E16.2555
G1 X62.893 Y81.895 E16.2793
G1 X62.622 Y81.257 E16.30235
G1 X62.206 Y80.714 E16.3251
G1 X61.667 Y80.298 E16.34775
G1 X61.026 Y80.028 E16.37088
G1 X60.332 Y79.936 E16.39417
G1 X59.625 Y80.025 E16.41787
G1 X58.988 Y80.293 E16.44085
G1 X58.451 Y80.707 E16.46341
G1 X58.034 Y81.243 E16.48599
G1 X57.76 Y81.883 E16.50915
G1 X57.666 Y82.582 E16.53261
G1 X57.753 Y83.285 E16.55617
G1 X58.023 Y83.931 E16.57945
G1 X58.437 Y84.466 E16.60195
G1 X58.972 Y84.884 E16.62454
G1 X59.613 Y85.158 E16.64772
G1 X60.312 Y85.252 E16.67118
G1 X61.014 Y85.165 E16.69471
G0 F6000 X60.91 Y84.775
G1 F900 X61.458 Y84.544 E16.71449
G1 X61.912 Y84.194 E16.73355
G1 X62.267 Y83.743 E16.75264
G1 X62.499 Y83.198 E16.77234
G1 X62.579 Y82.603 E16.79231
G1 X62.503 Y82 E16.81253
G1 X62.274 Y81.46 E16.83203
G1 X61.92 Y80.999 E16.85137
G1 X61.464 Y80.646 E16.87055
G1 X60.92 Y80.417 E16.89018
G1 X60.331 Y80.339 E16.90994
G1 X59.73 Y80.415 E16.93009
G1 X59.191 Y80.642 E16.94954
G1 X58.735 Y80.993 E16.96868
G1 X58.381 Y81.448 E16.98785
G1 X58.149 Y81.99 E17.00746
G1 X58.069 Y82.584 E17.0274
G1 X58.143 Y83.181 E17.04741
G1 X58.372 Y83.728 E17.06713
G1 X58.723 Y84.182 E17.08622
G1 X59.177 Y84.537 E17.10538
G1 X59.72 Y84.769 E17.12502
G1 X60.314 Y84.849 E17.14496
G1 X60.91 Y84.775 E17.16493
G0 F6000 X60.806 Y84.385
G1 F900 X61.255 Y84.196 E17.18114
G1 X61.628 Y83.908 E17.19681
G1 X61.92 Y83.537 E17.21251
G1 X62.11 Y83.091 E17.22864
G1 X62.176 Y82.601 E17.24508
G1 X62.113 Y82.105 E17.26171
G1 X61.926 Y81.663 E17.27767
G1 X61.634 Y81.284 E17.29359
G1 X61.26 Y80.994 E17.30933
G1 X60.814 Y80.806 E17.32543
G1 X60.33 Y80.742 E17.34166
G1 X59.835 Y80.805 E17.35826
G1 X59.394 Y80.991 E17.37418
G1 X59.019 Y81.279 E17.38991
G1 X58.728 Y81.653 E17.40567
G1 X58.538 Y82.097 E17.42173
G1 X58.472 Y82.586 E17.43814
G1 X58.533 Y83.077 E17.4546
G1 X58.721 Y83.525 E17.47076
G1 X59.009 Y83.898 E17.48643
G1 X59.382 Y84.19 E17.50219
G1 X59.827 Y84.38 E17.51828
G1 X60.316 Y84.446 E17.53469
G1 X60.806 Y84.385 E17.55111
G0 F6000 X60.702 Y83.995
;TYPE:WALL-OUTER
G1 F900 X61.052 Y83.848 E17.56374
G1 X61.344 Y83.622 E17.57602
G1 X61.573 Y83.331 E17.58834
G1 X61.721 Y82.984 E17.60088
G1 X61.773 Y82.6 E17.61377
G1 X61.723 Y82.21 E17.62685
G1 X61.578 Y81.866 E17.63927
G1 X61.349 Y81.569 E17.65174
G1 X61.056 Y81.342 E17.66407
G1 X60.708 Y81.195 E17.67663
G1 X60.329 Y81.145 E17.68935
G1 X59.94 Y81.195 E17.70239
G1 X59.597 Y81.34 E17.71478
G1 X59.303 Y81.565 E17.72709
G1 X59.075 Y81.858 E17.73944
G1 X58.927 Y82.204 E17.75196
G1 X58.875 Y82.588 E17.76485
G1 X58.923 Y82.973 E17.77775
G1 X59.07 Y83.322 E17.79035
G1 X59.295 Y83.614 E17.80261
G1 X59.587 Y83.843 E17.81495
G1 X59.934 Y83.991 E17.8275
G1 X60.318 Y84.043 E17.84038
G1 X60.702 Y83.995 E17.85326
G0 F6000 X60.815 Y84.42
G1 F1500 E11.35326
G0 F6000 X62.779 Y84.047
G0 X60.822 Y82.888
G0 X71.194 Y89.887
G0 X68.931 Y87.624
G0 X86.121 Y87.652
G0 X86.186 Y94.179
G0 X87.893 Y94.827
G0 X87.958 Y90.052
G0 X105.121 Y90.052
G0 X105.185 Y101.397
G0 X145.542 Y116.731
;TYPE:WALL-INNER
G1 F1500 E17.85326
G1 F900 X161.54 Y116.731 E18.38535
G1 X161.54 Y101.348 E18.89699
G1 X161.54 Y101.347 E18.89702
G1 X161.54 Y101.047 E18.907
G1 X161.817 Y101.164 E18.91284
G1 X161.967 Y101.228 E18.91826
G1 X162.56 Y101.312 E18.93818
G1 X163.161 Y101.235 E18.95833
G1 X163.705 Y101.006 E18.97797
G1 X164.152 Y100.662 E18.99673
G1 X164.161 Y100.655 E18.9971
G1 X164.267 Y100.52 E19.00281
G1 X164.299 Y100.479 E19.00454
G1 X164.517 Y100.199 E19.01635
G1 X164.746 Y99.66 E19.03582
G1 X164.83 Y99.067 E19.05574
G1 X164.753 Y98.466 E19.0759
G1 X164.579 Y98.057 E19.09068
G1 X164.52 Y97.917 E19.09573
G1 X164.458 Y97.837 E19.0991
G1 X164.253 Y97.569 E19.11032
G1 X164.168 Y97.459 E19.11495
G1 X163.71 Y97.105 E19.1342
G1 X163.176 Y96.881 E19.15346
G1 X162.584 Y96.797 E19.17335
G1 X161.984 Y96.874 E19.19347
G1 X161.817 Y96.945 E19.1995
G1 X161.54 Y97.062 E19.2095
G1 X161.54 Y96.762 E19.21532
G1 X161.54 Y96.761 E19.21536
G1 X161.54 Y81.735 E19.71512
G1 X145.542 Y81.735 E20.24722
G1 X145.542 Y97.733 E20.77931
G1 X160.462 Y97.733 E21.27556
G1 X160.628 Y97.733 E21.28108
G1 X160.766 Y97.733 E21.28567
G1 X160.628 Y97.912 E21.28895
G1 X160.563 Y98.064 E21.29318
G1 X160.399 Y98.449 E21.3071
G1 X160.315 Y99.043 E21.32705
G1 X160.392 Y99.643 E21.34717
G1 X160.621 Y100.187 E21.36681
G1 X160.781 Y100.395 E21.37553
G1 X160.972 Y100.643 E21.38595
G1 X161.087 Y100.733 E21.3908
G1 X160.972 Y100.733 E21.391
G1 X160.659 Y100.733 E21.3978
G1 X145.542 Y100.733 E21.90059
G1 X145.542 Y116.731 E22.43268
G0 F6000 X145.942 Y116.331
G1 F900 X161.14 Y116.331 E22.93817
G1 X161.14 Y101.133 E23.44366
G1 X145.942 Y101.133 E23.94915
G1 X145.942 Y116.331 E24.45463
G0 F6000 X146.342 Y115.931
;TYPE:WALL-OUTER
G1 F900 X160.74 Y115.931 E24.93351
G1 X160.74 Y101.533 E25.41239
G1 X146.342 Y101.533 E25.89127
G1 X146.342 Y115.931 E26.37015
G1 F1500 E19.87015
G0 F6000 X146.142 Y115.931
G0 X145.971 Y100.162
G0 X159.965 Y100.145
G0 X159.828 Y98.317
G0 X145.942 Y97.333
;TYPE:WALL-INNER
G1 F1500 E26.37015
G1 F900 X161.14 Y97.333 E26.87564
G1 X161.14 Y82.135 E27.38113
G1 X145.942 Y82.135 E27.88661
G1 X145.942 Y97.333 E28.3921
G0 F6000 X146.342 Y96.933
;TYPE:WALL-OUTER
G1 F900 X160.74 Y96.933 E28.87098
G1 X160.74 Y82.535 E29.34986
G1 X146.342 Y82.535 E29.82874
G1 X146.342 Y96.933 E30.30762
G0 F6000 X146.142 Y96.933
G0 X164.592 Y97.395
;TYPE:WALL-INNER
G1 F900 X164.592 Y97.733 E30.3158
G1 X164.744 Y97.733 E30.32085
G1 X180.59 Y97.733 E30.84789
G1 X180.59 Y81.735 E31.37999
G1 X164.592 Y81.735 E31.91209
G1 X164.592 Y97.395 E32.43294
G0 F6000 X164.992 Y97.333
G1 F900 X180.19 Y97.333 E32.93843
G1 X180.19 Y82.135 E33.44391
G1 X164.992 Y82.135 E33.9494
G1 X164.992 Y97.333 E34.45489
G0 F6000 X165.392 Y96.933
;TYPE:WALL-OUTER
G1 F900 X179.79 Y96.933 E34.93377
G1 X179.79 Y82.535 E35.41265
G1 X165.392 Y82.535 E35.89153
G1 X165.392 Y96.933 E36.37041
G0 F6000 X165.192 Y96.933
G0 X163.942 Y99.861
G0 X163.692 Y100.183
G0 X163.37 Y100.429
G0 X162.075 Y100.839
;TYPE:WALL-INNER
G1 F900 X162.563 Y100.908 E36.3868
G1 X163.056 Y100.845 E36.40333
G1 X163.502 Y100.657 E36.41943
G1 X163.877 Y100.369 E36.43516
G1 X164.169 Y99.994 E36.45096
G1 X164.357 Y99.552 E36.46694
G1 X164.426 Y99.064 E36.48333
G1 X164.363 Y98.571 E36.49986
G1 X164.172 Y98.12 E36.51615
G1 X163.883 Y97.744 E36.53192
G1 X163.507 Y97.454 E36.54772
G1 X163.069 Y97.27 E36.56352
G1 X162.581 Y97.201 E36.57991
G1 X162.089 Y97.264 E36.59641
G1 X161.638 Y97.455 E36.6127
G1 X161.262 Y97.744 E36.62847
G1 X160.976 Y98.116 E36.64408
G1 X160.788 Y98.557 E36.66002
G1 X160.719 Y99.046 E36.67645
G1 X160.782 Y99.538 E36.69295
G1 X160.97 Y99.984 E36.70904
G1 X161.258 Y100.359 E36.72477
G1 X161.633 Y100.651 E36.74058
G1 X162.075 Y100.839 E36.75655
G0 F6000 X162.183 Y100.45
;TYPE:WALL-OUTER
G1 F900 X162.566 Y100.504 E36.76942
G1 X162.951 Y100.455 E36.78233
G1 X163.299 Y100.308 E36.79489
G1 X163.593 Y100.083 E36.80721
G1 X163.821 Y99.79 E36.81955
G1 X163.968 Y99.444 E36.83206
G1 X164.022 Y99.061 E36.84492
G1 X163.973 Y98.676 E36.85783
G1 X163.824 Y98.323 E36.87057
G1 X163.598 Y98.029 E36.88291
G1 X163.304 Y97.803 E36.89524
G1 X162.962 Y97.659 E36.90758
G1 X162.578 Y97.605 E36.92048
G1 X162.194 Y97.654 E36.93336
G1 X161.841 Y97.803 E36.9461
G1 X161.547 Y98.029 E36.95843
G1 X161.324 Y98.319 E36.9706
G1 X161.177 Y98.665 E36.98311
G1 X161.123 Y99.049 E36.996
G1 X161.172 Y99.433 E37.00888
G1 X161.319 Y99.781 E37.02144
G1 X161.544 Y100.075 E37.03376
G1 X161.837 Y100.303 E37.04611
G1 X162.183 Y100.45 E37.05861
G0 F6000 X162.066 Y100.873
G0 X163.953 Y101.54
G0 X164.541 Y116.731
;TYPE:WALL-INNER
G1 F900 X180.539 Y116.731 E37.5907
G1 X180.539 Y100.733 E38.1228
G1 X164.594 Y100.733 E38.65313
G1 X164.541 Y100.733 E38.65479
G1 X164.541 Y100.745 E38.65519
G1 X164.541 Y116.731 E39.18689
G0 F6000 X164.941 Y116.331
G1 F900 X180.139 Y116.331 E39.69238
G1 X180.139 Y101.133 E40.19786
G1 X164.941 Y101.133 E40.70335
G1 X164.941 Y116.331 E41.20884
G0 F6000 X165.341 Y115.931
;TYPE:WALL-OUTER
G1 F900 X179.739 Y115.931 E41.68772
G1 X179.739 Y101.533 E42.1666
G1 X165.341 Y101.533 E42.64548
G1 X165.341 Y115.931 E43.12436
G1 F1500 E36.62436
G0 F6000 X165.141 Y115.931
G0 X166.023 Y117.305
G0 X180.19 Y117.313
G0 X180.19 Y119.347
G0 X163.959 Y119.347
G0 X163.95 Y134.876
G0 X159.767 Y136.955
G0 X159.888 Y138.24
G0 X146.216 Y139.498
G0 X145.544 Y154.823
;TYPE:WALL-INNER
G1 F1500 E43.12436
G1 F900 X161.542 Y154.823 E43.65645
G1 X161.542 Y139.588 E44.16317
G1 X161.542 Y139.425 E44.16859
G1 X161.542 Y139.337 E44.17152
G1 X161.691 Y139.425 E44.17416
G1 X161.848 Y139.468 E44.17822
G1 X162.26 Y139.581 E44.19243
G1 X162.864 Y139.584 E44.21252
G1 X163.441 Y139.431 E44.23237
G1 X163.944 Y139.138 E44.25174
G1 X164.192 Y138.892 E44.26335
G1 X164.353 Y138.733 E44.27088
G1 X164.36 Y138.72 E44.27137
G1 X164.444 Y138.578 E44.27686
G1 X164.649 Y138.231 E44.29026
G1 X164.808 Y137.661 E44.30995
G1 X164.811 Y137.052 E44.3302
G1 X164.655 Y136.477 E44.35002
G1 X164.485 Y136.183 E44.36131
G1 X164.389 Y136.016 E44.36772
G1 X164.364 Y135.973 E44.36937
G1 X164.179 Y135.789 E44.37805
G1 X163.95 Y135.561 E44.3888
G1 X163.45 Y135.267 E44.40809
G1 X162.877 Y135.11 E44.42785
G1 X162.268 Y135.11 E44.44811
G1 X161.85 Y135.225 E44.46253
G1 X161.701 Y135.265 E44.46766
G1 X161.54 Y135.359 E44.47386
G1 X161.54 Y135.265
G1 X161.54 Y135.11 E44.4778
G1 X161.54 Y119.929 E44.98272
G1 X145.542 Y119.929 E45.51482
G1 X145.542 Y135.927 E46.04691
G1 X160.472 Y135.927 E46.54349
G1 X160.79 Y135.927 E46.55406
G1 X160.825 Y135.927 E46.55523
G1 X160.79 Y135.962 E46.55562
G1 X160.629 Y136.236 E46.562
G1 X160.494 Y136.465 E46.57084
G1 X160.338 Y137.034 E46.59047
G1 X160.335 Y137.638 E46.61056
G1 X160.488 Y138.215 E46.63041
G1 X160.654 Y138.5 E46.64138
G1 X160.781 Y138.718 E46.64977
G1 X160.888 Y138.826 E46.65483
G1 X160.781 Y138.826 E46.65495
G1 X160.528 Y138.826 E46.66071
G1 X145.544 Y138.826 E47.15908
G1 X145.544 Y154.823 E47.69114
G0 F6000 X145.944 Y154.423
G1 F900 X161.142 Y154.423 E48.19663
G1 X161.142 Y139.226 E48.70208
G1 X145.944 Y139.226 E49.20757
G1 X145.944 Y154.423 E49.71302
G0 F6000 X146.344 Y154.023
;TYPE:WALL-OUTER
G1 F900 X160.742 Y154.023 E50.1919
G1 X160.742 Y139.626 E50.67075
G1 X146.344 Y139.626 E51.14963
G1 X146.344 Y154.023 E51.62848
G0 F6000 X146.144 Y154.023
G0 X164.541 Y154.823
;TYPE:WALL-INNER
G1 F900 X180.539 Y154.823 E52.16057
G1 X180.539 Y138.826 E52.69263
G1 X164.707 Y138.826 E53.21921
G1 X164.541 Y138.826 E53.22359
G1 X164.541 Y139.053 E53.22949
G1 X164.541 Y154.823 E53.754
G0 F6000 X164.941 Y154.423
G1 F900 X180.139 Y154.423 E54.25949
G1 X180.139 Y139.226 E54.76494
G1 X164.941 Y139.226 E55.27043
G1 X164.941 Y154.423 E55.77588
G0 F6000 X165.341 Y154.023
;TYPE:WALL-OUTER
G1 F900 X179.739 Y154.023 E56.25476
G1 X179.739 Y139.626 E56.73361
G1 X165.341 Y139.626 E57.21249
G1 X165.341 Y154.023 E57.69133
G0 F6000 X165.141 Y154.023
G0 X164.541 Y135.666
;TYPE:WALL-INNER
G1 F900 X164.541 Y135.927 E57.69784
G1 X164.734 Y135.927 E57.70271
G1 X180.539 Y135.927 E58.22839
G1 X180.539 Y119.929 E58.76048
G1 X164.541 Y119.929 E59.29258
G1 X164.541 Y135.666 E59.81599
G0 F6000 X164.941 Y135.527
G1 F900 X180.139 Y135.527 E60.32148
G1 X180.139 Y120.329 E60.82697
G1 X164.941 Y120.329 E61.33246
G1 X164.941 Y135.527 E61.83794
G0 F6000 X165.341 Y135.127
;TYPE:WALL-OUTER
G1 F900 X179.739 Y135.127 E62.31682
G1 X179.739 Y120.729 E62.7957
G1 X165.341 Y120.729 E63.27458
G1 X165.341 Y135.127 E63.75346
G0 F6000 X165.141 Y135.127
G0 X164.036 Y137.969
G0 X163.828 Y138.323
G0 X163.539 Y138.609
G0 X163.185 Y138.814
G0 X162.78 Y138.923
G0 X161.435 Y138.81
;TYPE:WALL-INNER
G1 F900 X161.848 Y139.053 E63.7694
G1 X162.315 Y139.181 E63.78551
G1 X162.813 Y139.184 E63.80207
G1 X163.286 Y139.058 E63.81835
G1 X163.699 Y138.818 E63.83424
G1 X164.035 Y138.485 E63.84997
G1 X164.278 Y138.073 E63.86588
G1 X164.408 Y137.605 E63.88204
G1 X164.411 Y137.104 E63.8987
G1 X164.283 Y136.632 E63.91496
G1 X164.044 Y136.219 E63.93084
G1 X163.704 Y135.88 E63.9468
G1 X163.293 Y135.639 E63.96265
G1 X162.823 Y135.51 E63.97886
G1 X162.322 Y135.51 E63.99553
G1 X161.857 Y135.637 E64.01156
G1 X161.441 Y135.879 E64.02756
G1 X161.109 Y136.209 E64.04313
G1 X160.866 Y136.622 E64.05907
G1 X160.738 Y137.089 E64.07518
G1 X160.735 Y137.587 E64.09174
G1 X160.861 Y138.06 E64.10802
G1 X161.101 Y138.473 E64.12391
G1 X161.435 Y138.81 E64.13969
G0 F6000 X161.682 Y138.491
;TYPE:WALL-OUTER
