;FLAVOR:Marlin
;TIME:29639
;Filament used: 10.4377m
;Layer height: 0.12
;MINX:33.937
;MINY:48.069
;MINZ:0.12
;MAXX:186.05
;MAXY:171.933
;MAXZ:12
;Generated with Cura_SteamEngine 5.0.0
M140 S90
M105
M190 S90
M104 S220
M105
M109 S220
M82 ;absolute extrusion mode
; Ender 3 Custom Start G-code
G92 E0 ; Reset Extruder
G28 ; Home all axes
G1 Z2.0 F3000 ; Move Z Axis up little to prevent scratching of Heat Bed
G1 X0.1 Y20 Z0.3 F5000.0 ; Move to start position
G1 X0.1 Y200.0 Z0.3 F1500.0 E15 ; Draw the first line
G1 X0.4 Y200.0 Z0.3 F5000.0 ; Move to side a little
G1 X0.4 Y20 Z0.3 F1500.0 E30 ; Draw the second line
G92 E0 ; Reset Extruder
G1 Z2.0 F3000 ; Move Z Axis up little to prevent scratching of Heat Bed
G1 X5 Y20 Z0.3 F5000.0 ; Move over to prevent blob squish
G92 E0
G92 E0
G1 F1500 E-6.5
;LAYER_COUNT:100
;LAYER:0
M107
;MESH:SofleBaseLeftBody.stl
G0 F6000 X115.198 Y171.933 Z0.12
;TYPE:WALL-OUTER
G1 F1500 E0
G1 F300 X115.548 Y171.886 E0.00705
G1 X115.857 Y171.759 E0.01371
G1 X116.131 Y171.55 E0.02059
G1 X116.337 Y171.281 E0.02735
G1 X116.465 Y170.972 E0.03403
G1 X116.499 Y170.715 E0.0392
G1 X116.513 Y170.526 E0.04298
G1 X116.513 Y169.625 E0.06096
G1 X116.579 Y169.476 E0.06422
G1 X116.713 Y169.425 E0.06708
G1 X134.196 Y169.425 E0.41597
G1 X134.546 Y169.378 E0.42302
G1 X134.855 Y169.251 E0.42968
G1 X135.129 Y169.042 E0.43656
G1 X135.335 Y168.773 E0.44332
G1 X135.463 Y168.464 E0.45
G1 X135.497 Y168.207 E0.45517
G1 X135.511 Y168.018 E0.45895
G1 X135.511 Y167.126 E0.47675
G1 X135.575 Y166.978 E0.47997
G1 X135.711 Y166.926 E0.48288
G1 X175.136 Y166.926 E1.26964
G1 X175.486 Y166.879 E1.27669
G1 X175.795 Y166.752 E1.28336
G1 X176.068 Y166.543 E1.29022
G1 X176.275 Y166.273 E1.29701
G1 X176.403 Y165.966 E1.30365
G1 X176.437 Y165.708 E1.30884
G1 X176.451 Y165.519 E1.31262
G1 X176.452 Y84.996 E2.91955
G1 X176.538 Y84.858 E2.92279
G1 X185.395 Y79.699 E3.12734
G1 X185.673 Y79.484 E3.13435
G1 X185.878 Y79.215 E3.1411
G1 X186.005 Y78.906 E3.14777
G1 X186.05 Y78.567 E3.15459
G1 X186.004 Y78.229 E3.1614
G1 X185.869 Y77.903 E3.16844
G1 X168.879 Y48.724 E3.84226
G1 X168.669 Y48.45 E3.84915
G1 X168.395 Y48.24 E3.85604
G1 X168.087 Y48.114 E3.86268
G1 X167.75 Y48.07 E3.86946
G1 X167.411 Y48.116 E3.87629
G1 X167.081 Y48.252 E3.88341
G1 X148.117 Y59.294 E4.32134
G1 X148.099 Y59.304 E4.32175
G1 X131.409 Y66.871 E4.68745
G1 X131.348 Y66.88 E4.68868
G1 X75.244 Y66.88 E5.80829
G1 X34.931 Y77.475 E6.6401
G1 X34.642 Y77.584 E6.64627
G1 X34.408 Y77.74 E6.65188
G1 X34.208 Y77.947 E6.65762
G1 X34.06 Y78.191 E6.66332
G1 X33.97 Y78.453 E6.66885
G1 X33.937 Y78.748 E6.67477
G1 X33.937 Y159.124 E8.27876
G1 X33.985 Y159.472 E8.28577
G1 X34.112 Y159.781 E8.29244
G1 X34.317 Y160.05 E8.29919
G1 X34.59 Y160.261 E8.30607
G1 X34.898 Y160.389 E8.31273
G1 X35.25 Y160.437 E8.31982
G1 X71.763 Y160.438 E9.04848
G1 X71.905 Y160.528 E9.05183
G1 X71.936 Y160.637 E9.05409
G1 X71.937 Y168.115 E9.20332
G1 X71.983 Y168.463 E9.21033
G1 X72.11 Y168.772 E9.217
G1 X72.315 Y169.041 E9.22375
G1 X72.589 Y169.252 E9.23065
G1 X72.896 Y169.38 E9.23728
G1 X73.249 Y169.427 E9.24439
G1 X90.742 Y169.429 E9.59348
G1 X90.876 Y169.51 E9.59661
G1 X90.914 Y169.628 E9.59908
G1 X90.915 Y170.62 E9.61888
G1 X90.961 Y170.968 E9.62588
G1 X91.089 Y171.277 E9.63256
G1 X91.294 Y171.547 E9.63932
G1 X91.566 Y171.757 E9.64618
G1 X91.875 Y171.885 E9.65286
G1 X92.227 Y171.932 E9.65994
G1 X102.902 Y171.933 E9.87297
G1 X115.198 Y171.933 E10.11835
G0 F6000 X115.172 Y171.533
;TYPE:WALL-INNER
G1 F300 X115.444 Y171.496 E10.12383
G1 X115.748 Y171.339 E10.13066
G1 X115.987 Y171.079 E10.13771
G1 X116.09 Y170.753 E10.14453
G1 X116.113 Y170.526 E10.14908
G1 X116.113 Y169.625 E10.16706
G1 X116.18 Y169.349 E10.17273
G1 X116.346 Y169.15 E10.1779
G1 X116.572 Y169.041 E10.18291
G1 X116.713 Y169.025 E10.18574
G1 X134.17 Y169.025 E10.53411
G1 X134.442 Y168.988 E10.53959
G1 X134.746 Y168.831 E10.54642
G1 X134.985 Y168.571 E10.55347
G1 X135.088 Y168.245 E10.56029
G1 X135.111 Y168.018 E10.56484
G1 X135.111 Y167.126 E10.58265
G1 X135.175 Y166.854 E10.58822
G1 X135.339 Y166.654 E10.59338
G1 X135.569 Y166.542 E10.59849
G1 X135.711 Y166.526 E10.60134
G1 X175.11 Y166.526 E11.38759
G1 X175.382 Y166.489 E11.39307
G1 X175.686 Y166.332 E11.3999
G1 X175.925 Y166.071 E11.40696
G1 X176.028 Y165.748 E11.41372
G1 X176.051 Y165.519 E11.41832
G1 X176.052 Y84.983 E13.0255
G1 X176.128 Y84.729 E13.03079
G1 X176.313 Y84.527 E13.03626
G1 X185.171 Y79.366 E13.24084
G1 X185.387 Y79.2 E13.24628
G1 X185.571 Y78.908 E13.25317
G1 X185.646 Y78.568 E13.26012
G1 X185.57 Y78.229 E13.26705
G1 X185.476 Y78.023 E13.27157
G1 X168.546 Y48.947 E13.943
G1 X168.384 Y48.736 E13.94831
G1 X168.087 Y48.547 E13.95534
G1 X167.751 Y48.474 E13.9622
G1 X167.411 Y48.549 E13.96915
G1 X167.2 Y48.645 E13.97377
G1 X148.278 Y59.662 E14.41072
G1 X131.556 Y67.244 E14.77713
G1 X131.348 Y67.28 E14.78134
G1 X75.296 Y67.28 E15.89992
G1 X35.053 Y77.857 E16.73029
G1 X34.743 Y77.997 E16.73708
G1 X34.526 Y78.193 E16.74291
G1 X34.394 Y78.451 E16.7487
G1 X34.344 Y78.716 E16.75408
G1 X34.337 Y78.77 E16.75516
G1 X34.337 Y159.097 E18.35818
G1 X34.375 Y159.368 E18.36364
G1 X34.533 Y159.674 E18.37051
G1 X34.793 Y159.912 E18.37754
G1 X35.115 Y160.014 E18.38428
G1 X35.345 Y160.037 E18.3889
G1 X71.783 Y160.038 E19.11606
G1 X72.026 Y160.111 E19.12112
G1 X72.227 Y160.291 E19.1265
G1 X72.328 Y160.536 E19.13179
G1 X72.336 Y160.637 E19.13382
G1 X72.337 Y168.089 E19.28253
G1 X72.373 Y168.359 E19.28796
G1 X72.531 Y168.664 E19.29482
G1 X72.791 Y168.903 E19.30187
G1 X73.113 Y169.005 E19.30861
G1 X73.342 Y169.027 E19.3132
G1 X90.763 Y169.029 E19.66085
G1 X91.003 Y169.102 E19.66586
G1 X91.199 Y169.274 E19.67106
G1 X91.292 Y169.464 E19.67528
G1 X91.314 Y169.628 E19.67859
G1 X91.315 Y170.594 E19.69786
G1 X91.351 Y170.864 E19.7033
G1 X91.508 Y171.168 E19.71013
G1 X91.768 Y171.407 E19.71718
G1 X92.092 Y171.51 E19.72396
G1 X92.32 Y171.532 E19.72853
G1 X102.902 Y171.533 E19.93971
G1 X115.172 Y171.533 E20.18457
G0 F6000 X115.146 Y171.133
G1 F300 X115.397 Y171.083 E20.18967
G1 X115.56 Y170.978 E20.19354
G1 X115.685 Y170.761 E20.19854
G1 X115.713 Y170.526 E20.20326
G1 X115.713 Y169.625 E20.22124
G1 X115.75 Y169.352 E20.22674
G1 X115.904 Y169.036 E20.23376
G1 X116.101 Y168.833 E20.2394
G1 X116.318 Y168.706 E20.24442
G1 X116.571 Y168.635 E20.24966
G1 X116.713 Y168.625 E20.25251
G1 X134.144 Y168.625 E20.60036
G1 X134.395 Y168.575 E20.60547
G1 X134.558 Y168.47 E20.60934
G1 X134.683 Y168.253 E20.61433
G1 X134.711 Y168.018 E20.61906
G1 X134.711 Y167.126 E20.63686
G1 X134.746 Y166.859 E20.64223
G1 X134.896 Y166.545 E20.64918
G1 X135.092 Y166.34 E20.65484
G1 X135.309 Y166.21 E20.65988
G1 X135.55 Y166.138 E20.6649
G1 X135.711 Y166.126 E20.66813
G1 X175.084 Y166.126 E21.45386
G1 X175.334 Y166.076 E21.45894
G1 X175.498 Y165.971 E21.46283
G1 X175.623 Y165.755 E21.46781
G1 X175.651 Y165.519 E21.47255
G1 X175.651 Y84.99 E23.0796
G1 X175.691 Y84.741 E23.08463
G1 X175.802 Y84.494 E23.09003
G1 X175.99 Y84.273 E23.09582
G1 X176.147 Y84.159 E23.0997
G1 X184.947 Y79.034 E23.30292
G1 X185.139 Y78.865 E23.30802
G1 X185.234 Y78.633 E23.31303
G1 X185.225 Y78.441 E23.31686
G1 X185.13 Y78.224 E23.32159
G1 X168.213 Y49.171 E23.9925
G1 X168.048 Y48.982 E23.99751
G1 X167.819 Y48.886 E24.00246
G1 X167.622 Y48.895 E24.0064
G1 X167.401 Y48.991 E24.01121
G1 X148.474 Y60.011 E24.44827
G1 X131.716 Y67.611 E24.81548
G1 X131.461 Y67.674 E24.82072
G1 X131.348 Y67.68 E24.82298
G1 X75.348 Y67.68 E25.94052
G1 X35.174 Y78.238 E26.76946
G1 X34.924 Y78.357 E26.77499
G1 X34.773 Y78.58 E26.78036
G1 X34.737 Y78.792 E26.78465
G1 X34.737 Y159.07 E28.38669
G1 X34.787 Y159.319 E28.39176
G1 X34.939 Y159.519 E28.39677
G1 X35.109 Y159.609 E28.40061
G1 X35.344 Y159.637 E28.40533
G1 X71.796 Y159.638 E29.13277
G1 X72.053 Y159.688 E29.13799
G1 X72.287 Y159.801 E29.14318
G1 X72.478 Y159.965 E29.1482
G1 X72.624 Y160.175 E29.15331
G1 X72.722 Y160.468 E29.15947
G1 X72.736 Y160.637 E29.16286
G1 X72.737 Y168.062 E29.31103
G1 X72.786 Y168.311 E29.3161
G1 X72.887 Y168.472 E29.31989
G1 X73.107 Y168.6 E29.32497
G1 X73.342 Y168.627 E29.32969
G1 X90.776 Y168.629 E29.6776
G1 X91.023 Y168.676 E29.68262
G1 X91.276 Y168.8 E29.68824
G1 X91.523 Y169.039 E29.6951
G1 X91.677 Y169.356 E29.70213
G1 X91.714 Y169.628 E29.70761
G1 X91.715 Y170.567 E29.72635
G1 X91.765 Y170.817 E29.73144
G1 X91.917 Y171.017 E29.73645
G1 X92.146 Y171.113 E29.74141
G1 X92.32 Y171.132 E29.7449
G1 X102.902 Y171.133 E29.95608
G1 X115.146 Y171.133 E30.20042
G0 F6000 X115.09 Y170.772
;TYPE:SKIN
G1 F300 X115.278 Y170.717 E30.20433
G1 X115.349 Y170.562 E30.20773
G1 X115.354 Y169.603 E30.22687
G1 X115.399 Y169.275 E30.23347
G1 X115.496 Y169.018 E30.23896
G1 X115.699 Y168.721 E30.24614
G1 X115.985 Y168.478 E30.25362
G1 X116.287 Y168.333 E30.26031
G1 X116.584 Y168.271 E30.26637
G1 X116.621 Y168.268 E30.26711
G1 X134.112 Y168.265 E30.61616
G1 X134.276 Y168.209 E30.61962
G1 X134.347 Y168.054 E30.62302
G1 X134.352 Y167.106 E30.64194
G1 X134.394 Y166.785 E30.6484
G1 X134.488 Y166.528 E30.65386
G1 X134.754 Y166.161 E30.6629
G1 X135.023 Y165.952 E30.6697
G1 X135.296 Y165.83 E30.67567
G1 X135.587 Y165.772 E30.68159
G1 X135.623 Y165.768 E30.68231
G1 X175.052 Y165.766 E31.46916
G1 X175.243 Y165.694 E31.47323
G1 X175.287 Y165.507 E31.47707
G1 X175.293 Y84.935 E33.08497
G1 X175.345 Y84.637 E33.09101
G1 X175.455 Y84.374 E33.0967
G1 X175.631 Y84.123 E33.10281
G1 X175.867 Y83.913 E33.10912
G1 X175.897 Y83.892 E33.10985
G1 X184.712 Y78.754 E33.31346
G1 X184.853 Y78.608 E33.31751
G1 X184.834 Y78.443 E33.32083
G1 X167.929 Y49.402 E33.99141
G1 X167.815 Y49.279 E33.99476
G1 X167.709 Y49.268 E33.99688
G1 X167.57 Y49.316 E33.99982
G1 X148.684 Y60.307 E34.43589
G1 X131.899 Y67.923 E34.80372
G1 X131.443 Y68.037 E34.8131
G1 X131.411 Y68.04 E34.81374
G1 X81.355 Y68.039 E35.81266
G1 X75.397 Y68.04 E35.93156
G1 X35.297 Y78.579 E36.75897
G1 X35.143 Y78.664 E36.76248
G1 X35.1 Y78.849 E36.76627
G1 X35.098 Y159.047 E38.36671
G1 X35.168 Y159.225 E38.37053
G1 X35.356 Y159.273 E38.3744
G1 X71.806 Y159.278 E39.1018
G1 X72.083 Y159.32 E39.10739
G1 X72.356 Y159.425 E39.11323
G1 X72.637 Y159.616 E39.12001
G1 X72.837 Y159.839 E39.12599
G1 X72.993 Y160.118 E39.13237
G1 X73.087 Y160.484 E39.13991
G1 X73.092 Y160.53 E39.14083
G1 X73.097 Y168.005 E39.29
G1 X73.165 Y168.217 E39.29445
G1 X73.377 Y168.263 E39.29877
G1 X90.776 Y168.268 E39.64599
G1 X91.024 Y168.302 E39.65099
G1 X91.277 Y168.389 E39.65632
G1 X91.53 Y168.54 E39.6622
G1 X91.793 Y168.802 E39.66961
G1 X92.01 Y169.218 E39.67898
G1 X92.073 Y169.604 E39.68678
G1 X92.075 Y169.63 E39.6873
G1 X92.075 Y170.515 E39.70496
G1 X92.114 Y170.678 E39.70831
G1 X92.29 Y170.768 E39.71225
G1 X115.09 Y170.772 E40.16725
G1 F1500 E33.66725
G0 F6000 X115.09 Y171.033
G0 X92.091 Y170.934
G0 X91.898 Y170.717
G0 X91.172 Y168.561
G0 X73.112 Y168.428
G0 X72.919 Y168.212
G0 X72.374 Y159.999
G0 X35.743 Y159.537
G1 F1500 E40.16725
G0 F6000 X35.743 Y159.062
G1 F300 X35.298 Y158.617 E40.17981
G0 F6000 X35.298 Y158.051
G1 F300 X36.309 Y159.062 E40.20834
G0 F6000 X36.875 Y159.063
G1 F300 X35.298 Y157.486 E40.25285
G0 F6000 X35.298 Y156.92
G1 F300 X37.441 Y159.063 E40.31333
G0 F6000 X38.006 Y159.063
G1 F300 X35.298 Y156.354 E40.38977
G0 F6000 X35.298 Y155.789
G1 F300 X38.573 Y159.064 E40.4822
G0 F6000 X39.139 Y159.064
G1 F300 X35.298 Y155.223 E40.5906
G0 F6000 X35.298 Y154.657
G1 F300 X39.704 Y159.064 E40.71496
G0 F6000 X40.271 Y159.065
G1 F300 X35.298 Y154.092 E40.85531
G0 F6000 X35.298 Y153.526
G1 F300 X40.836 Y159.065 E41.01162
G0 F6000 X41.403 Y159.065
G1 F300 X35.298 Y152.96 E41.18391
G0 F6000 X35.298 Y152.394
G1 F300 X41.968 Y159.065 E41.37217
G0 F6000 X42.534 Y159.065
G1 F300 X35.298 Y151.829 E41.57638
G0 F6000 X35.298 Y151.263
G1 F300 X43.1 Y159.066 E41.79659
G0 F6000 X43.666 Y159.066
G1 F300 X35.298 Y150.698 E42.03275
G0 F6000 X35.298 Y150.132
G1 F300 X44.233 Y159.067 E42.28491
G0 F6000 X44.798 Y159.067
G1 F300 X35.298 Y149.567 E42.55303
G0 F6000 X35.298 Y149.001
G1 F300 X45.364 Y159.067 E42.83711
G0 F6000 X45.93 Y159.067
G1 F300 X35.298 Y148.435 E43.13717
G0 F6000 X35.298 Y147.87
G1 F300 X46.496 Y159.067 E43.45319
G0 F6000 X47.062 Y159.068
G1 F300 X35.298 Y147.304 E43.78519
G0 F6000 X35.298 Y146.738
G1 F300 X47.628 Y159.068 E44.13317
G0 F6000 X48.194 Y159.068
G1 F300 X35.298 Y146.173 E44.49711
G0 F6000 X35.298 Y145.607
G1 F300 X48.76 Y159.069 E44.87704
G0 F6000 X49.326 Y159.069
G1 F300 X35.298 Y145.041 E45.27294
G0 F6000 X35.298 Y144.476
G1 F300 X49.892 Y159.069 E45.6848
G0 F6000 X50.458 Y159.07
G1 F300 X35.298 Y143.91 E46.11264
G0 F6000 X35.298 Y143.344
G1 F300 X51.024 Y159.07 E46.55647
G0 F6000 X51.59 Y159.07
G1 F300 X35.299 Y142.779 E47.01623
G0 F6000 X35.299 Y142.214
G1 F300 X52.156 Y159.07 E47.49196
G0 F6000 X52.721 Y159.07
G1 F300 X35.299 Y141.648 E47.98365
G0 F6000 X35.299 Y141.082
G1 F300 X53.288 Y159.071 E48.49133
G0 F6000 X53.853 Y159.071
G1 F300 X35.299 Y140.516 E49.01498
G0 F6000 X35.299 Y139.951
G1 F300 X54.42 Y159.072 E49.55462
G0 F6000 X54.986 Y159.072
G1 F300 X35.299 Y139.385 E50.11023
G0 F6000 X35.299 Y138.819
G1 F300 X55.551 Y159.072 E50.6818
G0 F6000 X56.118 Y159.072
G1 F300 X35.299 Y138.254 E51.26934
G0 F6000 X35.299 Y137.688
G1 F300 X56.683 Y159.072 E51.87284
G0 F6000 X57.25 Y159.073
G1 F300 X35.299 Y137.122 E52.49235
G0 F6000 X35.299 Y136.557
G1 F300 X57.815 Y159.073 E53.1278
G0 F6000 X58.381 Y159.073
G1 F300 X35.299 Y135.991 E53.77922
G0 F6000 X35.299 Y135.425
G1 F300 X58.947 Y159.074 E54.44663
G0 F6000 X59.513 Y159.074
G1 F300 X35.3 Y134.86 E55.12999
G0 F6000 X35.3 Y134.295
G1 F300 X60.079 Y159.074 E55.82931
G0 F6000 X60.645 Y159.074
G1 F300 X35.3 Y133.729 E56.5446
G0 F6000 X35.3 Y133.163
G1 F300 X61.211 Y159.074 E57.27586
G0 F6000 X61.777 Y159.075
G1 F300 X35.3 Y132.598 E58.0231
G0 F6000 X35.3 Y132.032
G1 F300 X62.343 Y159.075 E58.78631
G0 F6000 X62.909 Y159.075
G1 F300 X35.3 Y131.466 E59.5655
G0 F6000 X35.3 Y130.901
G1 F300 X63.475 Y159.076 E60.36066
G0 F6000 X64.041 Y159.076
G1 F300 X35.3 Y130.335 E61.17179
G0 F6000 X35.3 Y129.769
G1 F300 X64.607 Y159.077 E61.99891
G0 F6000 X65.173 Y159.077
G1 F300 X35.3 Y129.203 E62.84201
G0 F6000 X35.3 Y128.638
G1 F300 X65.739 Y159.077 E63.70106
G0 F6000 X66.305 Y159.077
G1 F300 X35.3 Y128.072 E64.57609
G0 F6000 X35.3 Y127.506
G1 F300 X66.871 Y159.077 E65.46709
G0 F6000 X67.436 Y159.077
G1 F300 X35.3 Y126.941 E66.37404
G0 F6000 X35.3 Y126.376
G1 F300 X68.003 Y159.078 E67.29697
G0 F6000 X68.568 Y159.078
G1 F300 X35.3 Y125.81 E68.23587
G0 F6000 X35.3 Y125.244
G1 F300 X69.135 Y159.079 E69.19077
G0 F6000 X69.7 Y159.079
G1 F300 X35.3 Y124.679 E70.16161
G0 F6000 X35.3 Y124.113
G1 F300 X70.266 Y159.079 E71.14842
G0 F6000 X70.833 Y159.079
G1 F300 X35.3 Y123.547 E72.15123
G0 F6000 X35.3 Y122.982
G1 F300 X71.398 Y159.079 E73.16998
G0 F6000 X71.991 Y159.106
G1 F300 X35.3 Y122.416 E74.20546
G0 F6000 X35.3 Y121.85
G1 F300 X81.513 Y168.063 E75.50969
G0 F6000 X80.948 Y168.063
G1 F300 X73.266 Y160.382 E75.72648
G0 F6000 X73.286 Y160.967
G1 F300 X80.381 Y168.063 E75.92673
G0 F6000 X79.816 Y168.063
G1 F300 X73.287 Y161.534 E76.11099
G0 F6000 X73.288 Y162.101
G1 F300 X79.249 Y168.062 E76.27923
G0 F6000 X78.684 Y168.062
G1 F300 X73.289 Y162.667 E76.43149
G0 F6000 X73.29 Y163.234
G1 F300 X78.117 Y168.061 E76.56771
G0 F6000 X77.551 Y168.061
G1 F300 X73.29 Y163.8 E76.68797
G0 F6000 X73.291 Y164.366
G1 F300 X76.985 Y168.06 E76.79222
G0 F6000 X76.419 Y168.06
G1 F300 X73.292 Y164.933 E76.88047
G0 F6000 X73.293 Y165.499
G1 F300 X75.854 Y168.06 E76.95275
G0 F6000 X75.287 Y168.06
G1 F300 X73.293 Y166.066 E77.00902
G0 F6000 X73.294 Y166.632
G1 F300 X74.722 Y168.06 E77.04932
G0 F6000 X74.155 Y168.059
G1 F300 X73.295 Y167.198 E77.07361
G0 F6000 X73.295 Y167.765
G1 F300 X73.59 Y168.059 E77.08192
G0 F6000 X73.589 Y168.527
G0 X82.08 Y168.528
G0 X82.08 Y168.064
G1 F300 X35.3 Y121.285 E78.40214
G0 F6000 X35.3 Y120.719
G1 F300 X82.645 Y168.064 E79.73832
G0 F6000 X83.211 Y168.064
G1 F300 X35.3 Y120.153 E81.09047
G0 F6000 X35.3 Y119.588
G1 F300 X83.778 Y168.065 E82.45861
G0 F6000 X84.343 Y168.065
G1 F300 X35.3 Y119.022 E83.84271
G0 F6000 X35.301 Y118.457
G1 F300 X84.91 Y168.065 E85.24277
