;FLAVOR:Marlin
;TIME:23325
;Filament used: 10.3658m
;Layer height: 0.12
;MINX:34.109
;MINY:48.239
;MINZ:0.12
;MAXX:185.892
;MAXY:171.761
;MAXZ:12
;Generated with Cura_SteamEngine 5.0.0
M140 S85
M105
M190 S85
M104 S220
M105
M109 S220
M82 ;absolute extrusion mode
; Ender 3 Custom Start G-code
G92 E0 ; Reset Extruder
G28 ; Home all axes
G1 Z2.0 F3000 ; Move Z Axis up little to prevent scratching of Heat Bed
G1 X0.1 Y20 Z0.3 F5000.0 ; Move to start position
G1 X0.1 Y200.0 Z0.3 F1500.0 E15 ; Draw the first line
G1 X0.4 Y200.0 Z0.3 F5000.0 ; Move to side a little
G1 X0.4 Y20 Z0.3 F1500.0 E30 ; Draw the second line
G92 E0 ; Reset Extruder
G1 Z2.0 F3000 ; Move Z Axis up little to prevent scratching of Heat Bed
G1 X5 Y20 Z0.3 F5000.0 ; Move over to prevent blob squish
G92 E0
G92 E0
G1 F2700 E-5
;LAYER_COUNT:100
;LAYER:0
M107
;MESH:SofleBase.stl
G0 F6000 X104.809 Y171.651 Z0.12
;TYPE:WALL-OUTER
G1 F2700 E0
G1 F900 X105.144 Y171.732 E0.00688
G1 X105.497 Y171.761 E0.01395
G1 X126.686 Y171.761 E0.4368
G1 X126.981 Y171.734 E0.44271
G1 X127.363 Y171.646 E0.45053
G1 X127.68 Y171.517 E0.45736
G1 X127.978 Y171.335 E0.46433
G1 X128.239 Y171.112 E0.47118
G1 X128.461 Y170.854 E0.47797
G1 X128.644 Y170.554 E0.48498
G1 X128.774 Y170.239 E0.49178
G1 X128.853 Y169.91 E0.49854
G1 X128.886 Y169.58 E0.50516
G1 X128.929 Y169.339 E0.51004
G1 X129.077 Y169.259 E0.5134
G1 X145.583 Y169.258 E0.84279
G1 X145.948 Y169.229 E0.8501
G1 X146.3 Y169.147 E0.85731
G1 X146.633 Y169.008 E0.86451
G1 X146.941 Y168.819 E0.87172
G1 X147.216 Y168.586 E0.87892
G1 X147.45 Y168.312 E0.88611
G1 X147.638 Y168.003 E0.89333
G1 X147.776 Y167.671 E0.9005
G1 X147.86 Y167.319 E0.90772
G1 X147.889 Y166.951 E0.91509
G1 X147.89 Y160.444 E1.04494
G1 X147.974 Y160.297 E1.04832
G1 X148.09 Y160.261 E1.05075
G1 X183.585 Y160.26 E1.75909
G1 X183.95 Y160.232 E1.76639
G1 X184.301 Y160.149 E1.77359
G1 X184.635 Y160.01 E1.78081
G1 X184.942 Y159.821 E1.788
G1 X185.217 Y159.588 E1.7952
G1 X185.451 Y159.314 E1.80239
G1 X185.64 Y159.005 E1.80962
G1 X185.777 Y158.672 E1.8168
G1 X185.862 Y158.322 E1.82399
G1 X185.891 Y157.953 E1.83138
G1 X185.892 Y79.9 E3.38901
G1 X185.863 Y79.524 E3.39653
G1 X185.781 Y79.146 E3.40425
G1 X185.644 Y78.77 E3.41224
G1 X185.458 Y78.405 E3.42041
G1 X185.226 Y78.063 E3.42866
G1 X184.952 Y77.75 E3.43696
G1 X184.647 Y77.477 E3.44513
G1 X184.318 Y77.249 E3.45312
G1 X183.974 Y77.072 E3.46084
G1 X183.616 Y76.95 E3.46839
G1 X146.575 Y67.205 E4.23273
G1 X146.292 Y67.133 E4.23856
G1 X145.81 Y67.027 E4.24841
G1 X145.455 Y66.955 E4.25564
G1 X144.792 Y66.851 E4.26903
G1 X144.107 Y66.765 E4.28281
G1 X143.732 Y66.733 E4.29032
G1 X143.442 Y66.706 E4.29613
G1 X142.875 Y66.682 E4.30746
G1 X88.538 Y66.678 E5.39181
G1 X88.472 Y66.657 E5.39319
G1 X53.532 Y48.508 E6.17891
G1 X53.196 Y48.365 E6.1862
G1 X52.838 Y48.275 E6.19357
G1 X52.472 Y48.24 E6.2009
G1 X52.104 Y48.262 E6.20826
G1 X51.74 Y48.337 E6.21568
G1 X51.393 Y48.468 E6.22308
G1 X51.069 Y48.649 E6.23049
G1 X50.779 Y48.874 E6.23781
G1 X50.527 Y49.14 E6.24512
G1 X50.317 Y49.444 E6.2525
G1 X34.424 Y76.841 E6.88457
G1 X34.264 Y77.174 E6.89194
G1 X34.161 Y77.519 E6.89912
G1 X34.113 Y77.878 E6.90635
G1 X34.115 Y78.052 E6.90983
G1 X34.152 Y78.418 E6.91717
G1 X34.243 Y78.763 E6.92429
G1 X34.385 Y79.09 E6.9314
G1 X34.585 Y79.404 E6.93883
G1 X34.818 Y79.666 E6.94583
G1 X35.098 Y79.897 E6.95307
G1 X35.341 Y80.058 E6.95889
G1 X43.074 Y84.611 E7.13797
G1 X43.151 Y84.756 E7.14125
G1 X43.214 Y114.066 E7.72616
G1 X43.272 Y121.451 E7.87354
G1 X43.339 Y164.421 E8.73105
G1 X43.374 Y164.83 E8.73925
G1 X43.478 Y165.215 E8.7472
G1 X43.648 Y165.578 E8.7552
G1 X43.879 Y165.907 E8.76323
G1 X44.164 Y166.19 E8.77124
G1 X44.493 Y166.421 E8.77926
G1 X44.856 Y166.592 E8.78727
G1 X45.242 Y166.695 E8.79524
G1 X45.544 Y166.721 E8.80129
G1 X45.759 Y166.732 E8.80559
G1 X84.116 Y166.761 E9.57104
G1 X84.248 Y166.836 E9.57407
G1 X84.302 Y167.117 E9.57978
G1 X84.325 Y167.442 E9.58629
G1 X84.422 Y167.812 E9.59392
G1 X84.584 Y168.157 E9.60153
G1 X84.801 Y168.469 E9.60911
G1 X85.075 Y168.743 E9.61684
G1 X85.387 Y168.963 E9.62446
G1 X85.733 Y169.124 E9.63208
G1 X86.107 Y169.225 E9.63981
G1 X86.498 Y169.259 E9.64764
G1 X103.108 Y169.261 E9.97911
G1 X103.249 Y169.339 E9.98233
G1 X103.299 Y169.612 E9.98787
G1 X103.318 Y169.904 E9.9937
G1 X103.396 Y170.24 E10.00059
G1 X103.53 Y170.558 E10.00747
G1 X103.71 Y170.852 E10.01435
G1 X103.933 Y171.116 E10.02125
G1 X104.195 Y171.339 E10.02812
G1 X104.49 Y171.52 E10.03502
G1 X104.809 Y171.651 E10.04191
G0 F6000 X105.208 Y171.336
;TYPE:WALL-INNER
G1 F900 X105.513 Y171.361 E10.04801
G1 X126.678 Y171.361 E10.47038
G1 X126.946 Y171.334 E10.47576
G1 X127.24 Y171.265 E10.48178
G1 X127.5 Y171.16 E10.48738
G1 X127.743 Y171.011 E10.49307
G1 X127.956 Y170.83 E10.49865
G1 X128.138 Y170.618 E10.50422
G1 X128.287 Y170.373 E10.50994
G1 X128.393 Y170.116 E10.51549
G1 X128.458 Y169.846 E10.52103
G1 X128.486 Y169.57 E10.52657
G1 X128.515 Y169.285 E10.53229
G1 X128.652 Y169.048 E10.53775
G1 X128.867 Y168.901 E10.54295
G1 X129.09 Y168.859 E10.54748
G1 X145.567 Y168.858 E10.87629
G1 X145.886 Y168.833 E10.88268
G1 X146.176 Y168.765 E10.88862
G1 X146.451 Y168.651 E10.89456
G1 X146.706 Y168.494 E10.90054
G1 X146.933 Y168.302 E10.90647
G1 X147.125 Y168.076 E10.91239
G1 X147.28 Y167.821 E10.91835
G1 X147.394 Y167.547 E10.92427
G1 X147.464 Y167.257 E10.93022
G1 X147.489 Y166.935 E10.93667
G1 X147.491 Y160.411 E11.06686
G1 X147.575 Y160.151 E11.07231
G1 X147.752 Y159.965 E11.07744
G1 X147.99 Y159.869 E11.08256
G1 X148.09 Y159.861 E11.08456
G1 X183.569 Y159.86 E11.79258
G1 X183.888 Y159.836 E11.79897
G1 X184.177 Y159.767 E11.8049
G1 X184.452 Y159.653 E11.81084
G1 X184.706 Y159.496 E11.8168
G1 X184.934 Y159.304 E11.82274
G1 X185.126 Y159.078 E11.82866
G1 X185.282 Y158.823 E11.83463
G1 X185.395 Y158.548 E11.84056
G1 X185.466 Y158.259 E11.8465
G1 X185.491 Y157.938 E11.85292
G1 X185.492 Y79.915 E13.40996
G1 X185.466 Y79.582 E13.41662
G1 X185.396 Y79.258 E13.42324
G1 X185.276 Y78.93 E13.43021
G1 X185.113 Y78.609 E13.43739
G1 X184.909 Y78.308 E13.44465
G1 X184.667 Y78.032 E13.45197
G1 X184.399 Y77.791 E13.45917
G1 X184.112 Y77.593 E13.46612
G1 X183.817 Y77.441 E13.47275
G1 X183.5 Y77.333 E13.47943
G1 X146.588 Y67.623 E14.24111
G1 X146.296 Y67.545 E14.24714
G1 X145.965 Y67.465 E14.25394
G1 X145.385 Y67.349 E14.26574
G1 X144.736 Y67.247 E14.27885
G1 X144.065 Y67.163 E14.29235
G1 X143.416 Y67.105 E14.30535
G1 X142.866 Y67.082 E14.31633
G1 X88.52 Y67.078 E15.40087
G1 X88.288 Y67.012 E15.40568
G1 X53.361 Y48.87 E16.19111
G1 X53.068 Y48.745 E16.19746
G1 X52.77 Y48.671 E16.20359
G1 X52.465 Y48.641 E16.20971
G1 X52.157 Y48.66 E16.21587
G1 X51.852 Y48.722 E16.22208
G1 X51.562 Y48.832 E16.22827
G1 X51.291 Y48.983 E16.23446
G1 X51.049 Y49.171 E16.24057
G1 X50.838 Y49.393 E16.24668
G1 X50.655 Y49.659 E16.25313
G1 X34.778 Y77.029 E16.88457
G1 X34.638 Y77.319 E16.891
G1 X34.553 Y77.603 E16.89691
G1 X34.513 Y77.9 E16.90289
G1 X34.515 Y78.044 E16.90577
G1 X34.546 Y78.346 E16.91183
G1 X34.621 Y78.632 E16.91773
G1 X34.739 Y78.903 E16.92363
G1 X34.903 Y79.162 E16.92974
G1 X35.095 Y79.378 E16.93551
G1 X35.328 Y79.569 E16.94152
G1 X35.544 Y79.713 E16.9467
G1 X43.289 Y84.273 E17.12606
G1 X43.467 Y84.462 E17.13124
G1 X43.549 Y84.71 E17.13646
G1 X43.551 Y84.768 E17.13761
G1 X43.583 Y99.929 E17.44017
G1 X43.614 Y114.063 E17.72223
G1 X43.672 Y121.448 E17.86961
G1 X43.739 Y164.403 E18.72682
G1 X43.77 Y164.76 E18.73398
G1 X43.855 Y165.077 E18.74052
G1 X43.996 Y165.377 E18.74714
G1 X44.186 Y165.648 E18.75374
G1 X44.422 Y165.882 E18.76038
G1 X44.695 Y166.073 E18.76703
G1 X44.994 Y166.214 E18.77362
G1 X45.312 Y166.299 E18.78019
G1 X45.67 Y166.332 E18.78737
G1 X84.133 Y166.361 E19.55494
G1 X84.392 Y166.441 E19.56035
G1 X84.562 Y166.588 E19.56483
G1 X84.658 Y166.764 E19.56883
G1 X84.701 Y167.089 E19.57538
G1 X84.721 Y167.376 E19.58112
G1 X84.8 Y167.675 E19.58729
G1 X84.932 Y167.957 E19.5935
G1 X85.109 Y168.211 E19.59968
G1 X85.333 Y168.436 E19.60602
G1 X85.588 Y168.615 E19.61223
G1 X85.871 Y168.747 E19.61846
G1 X86.177 Y168.829 E19.62479
G1 X86.515 Y168.859 E19.63156
G1 X103.118 Y168.861 E19.96289
G1 X103.376 Y168.934 E19.96824
G1 X103.567 Y169.097 E19.97325
G1 X103.659 Y169.272 E19.9772
G1 X103.698 Y169.586 E19.98351
G1 X103.715 Y169.846 E19.98871
G1 X103.778 Y170.116 E19.99424
G1 X103.887 Y170.375 E19.99985
G1 X104.035 Y170.617 E20.00551
G1 X104.217 Y170.832 E20.01113
G1 X104.431 Y171.014 E20.01674
G1 X104.672 Y171.162 E20.02238
G1 X104.933 Y171.269 E20.02801
G1 X105.208 Y171.336 E20.03366
G0 F6000 X105.753 Y170.961
G1 F900 X126.669 Y170.961 E20.45106
G1 X127.016 Y170.917 E20.45804
G1 X127.32 Y170.802 E20.46453
G1 X127.596 Y170.624 E20.47108
G1 X127.815 Y170.382 E20.4776
G1 X127.98 Y170.096 E20.48419
G1 X128.063 Y169.782 E20.49067
G1 X128.09 Y169.434 E20.49763
G1 X128.132 Y169.17 E20.50297
G1 X128.286 Y168.863 E20.50982
G1 X128.481 Y168.665 E20.51537
G1 X128.718 Y168.53 E20.52081
G1 X128.966 Y168.466 E20.52592
G1 X129.09 Y168.459 E20.5284
G1 X145.551 Y168.458 E20.8569
G1 X145.824 Y168.437 E20.86236
G1 X146.162 Y168.338 E20.86939
G1 X146.47 Y168.168 E20.87641
G1 X146.726 Y167.928 E20.88341
G1 X146.922 Y167.64 E20.89037
G1 X147.04 Y167.309 E20.89738
G1 X147.084 Y166.982 E20.90396
G1 X147.089 Y166.856 E20.90648
G1 X147.09 Y160.461 E21.0341
G1 X147.131 Y160.175 E21.03986
G1 X147.233 Y159.945 E21.04488
G1 X147.388 Y159.747 E21.0499
G1 X147.594 Y159.592 E21.05505
G1 X147.837 Y159.493 E21.06028
G1 X148.09 Y159.461 E21.06537
G1 X183.554 Y159.46 E21.7731
G1 X183.826 Y159.439 E21.77854
G1 X184.161 Y159.341 E21.7855
G1 X184.471 Y159.171 E21.79256
G1 X184.727 Y158.93 E21.79958
G1 X184.924 Y158.642 E21.80654
G1 X185.04 Y158.313 E21.8135
G1 X185.086 Y157.986 E21.82009
G1 X185.091 Y157.861 E21.82259
G1 X185.092 Y79.93 E23.37779
G1 X185.069 Y79.64 E23.38359
G1 X185.011 Y79.37 E23.3891
G1 X184.909 Y79.09 E23.39505
G1 X184.768 Y78.813 E23.40125
G1 X184.591 Y78.553 E23.40753
G1 X184.382 Y78.314 E23.41386
G1 X184.151 Y78.106 E23.42007
G1 X183.906 Y77.937 E23.42601
G1 X183.66 Y77.81 E23.43153
G1 X183.385 Y77.717 E23.43733
G1 X146.292 Y67.958 E24.20275
G1 X145.879 Y67.855 E24.21124
G1 X145.315 Y67.743 E24.22272
G1 X144.68 Y67.643 E24.23554
G1 X144.022 Y67.561 E24.24878
G1 X143.389 Y67.505 E24.26146
G1 X142.858 Y67.482 E24.27207
G1 X88.509 Y67.478 E25.35666
G1 X88.263 Y67.433 E25.36165
G1 X88.104 Y67.367 E25.36508
G1 X53.19 Y49.232 E26.15021
G1 X52.94 Y49.126 E26.15563
G1 X52.584 Y49.055 E26.16288
G1 X52.327 Y49.05 E26.16801
G1 X51.964 Y49.108 E26.17534
G1 X51.627 Y49.254 E26.18267
G1 X51.415 Y49.393 E26.18773
G1 X51.15 Y49.646 E26.19504
G1 X50.993 Y49.873 E26.20055
G1 X35.132 Y77.217 E26.83139
G1 X35.012 Y77.465 E26.83688
G1 X34.931 Y77.801 E26.84378
G1 X34.915 Y78.036 E26.84848
G1 X34.962 Y78.391 E26.85563
G1 X35.093 Y78.716 E26.86262
G1 X35.291 Y79.011 E26.86971
G1 X35.558 Y79.242 E26.87676
G1 X35.747 Y79.369 E26.8813
G1 X43.459 Y83.908 E27.05988
G1 X43.683 Y84.087 E27.0656
G1 X43.83 Y84.291 E27.07062
G1 X43.924 Y84.535 E27.07584
G1 X43.951 Y84.767 E27.0805
G1 X43.983 Y99.928 E27.38305
G1 X44.014 Y114.06 E27.66507
G1 X44.072 Y121.445 E27.81245
G1 X44.139 Y164.385 E28.66937
G1 X44.165 Y164.69 E28.67548
G1 X44.232 Y164.939 E28.68062
G1 X44.343 Y165.175 E28.68583
G1 X44.494 Y165.39 E28.69107
G1 X44.68 Y165.574 E28.69629
G1 X44.896 Y165.726 E28.70156
G1 X45.132 Y165.837 E28.70677
G1 X45.382 Y165.903 E28.71193
G1 X45.688 Y165.932 E28.71806
G1 X84.145 Y165.961 E29.48551
G1 X84.398 Y166.008 E29.49065
G1 X84.635 Y166.121 E29.49589
G1 X84.876 Y166.341 E29.5024
G1 X85.036 Y166.634 E29.50906
G1 X85.088 Y166.89 E29.51428
G1 X85.118 Y167.311 E29.5227
G1 X85.226 Y167.642 E29.52965
G1 X85.417 Y167.954 E29.53695
G1 X85.689 Y168.197 E29.54423
G1 X86.008 Y168.369 E29.55146
G1 X86.369 Y168.444 E29.55882
G1 X86.77 Y168.459 E29.56682
G1 X103.121 Y168.461 E29.89313
G1 X103.369 Y168.5 E29.89814
G1 X103.604 Y168.603 E29.90326
G1 X103.813 Y168.77 E29.90859
G1 X103.963 Y168.974 E29.91365
G1 X104.088 Y169.397 E29.92245
G1 X104.104 Y169.654 E29.92759
G1 X104.16 Y169.992 E29.93443
G1 X104.297 Y170.278 E29.94075
G1 X104.501 Y170.549 E29.94752
G1 X104.755 Y170.743 E29.9539
G1 X105.057 Y170.888 E29.96059
G1 X105.381 Y170.948 E29.96716
G1 X105.753 Y170.961 E29.97459
G0 F6000 X105.344 Y170.573
;TYPE:SKIN
G1 F900 X105.748 Y170.596 E29.98267
G1 X126.591 Y170.6 E30.39861
G1 X126.917 Y170.571 E30.40514
G1 X127.158 Y170.478 E30.4103
G1 X127.447 Y170.253 E30.41761
G1 X127.643 Y169.964 E30.42458
G1 X127.712 Y169.684 E30.43033
G1 X127.732 Y169.404 E30.43593
G1 X127.782 Y169.086 E30.44236
G1 X127.883 Y168.832 E30.44781
G1 X128.077 Y168.551 E30.45462
G1 X128.312 Y168.344 E30.46087
G1 X128.635 Y168.176 E30.46814
G1 X128.933 Y168.108 E30.47424
G1 X129.114 Y168.104 E30.47785
G1 X145.478 Y168.097 E30.80441
G1 X145.762 Y168.08 E30.81009
G1 X146.022 Y168.004 E30.8155
G1 X146.259 Y167.874 E30.82089
G1 X146.452 Y167.694 E30.82616
G1 X146.6 Y167.474 E30.83145
G1 X146.687 Y167.223 E30.83675
G1 X146.724 Y166.958 E30.84209
G1 X146.734 Y160.345 E30.97406
G1 X146.803 Y160.024 E30.98061
G1 X146.94 Y159.734 E30.98701
G1 X147.127 Y159.499 E30.99301
G1 X147.359 Y159.313 E30.99894
G1 X147.638 Y159.176 E31.00514
G1 X147.962 Y159.107 E31.01175
G1 X147.999 Y159.103 E31.0125
G1 X183.484 Y159.1 E31.72064
G1 X183.76 Y159.082 E31.72616
G1 X184.108 Y158.971 E31.73345
G1 X184.326 Y158.821 E31.73873
G1 X184.51 Y158.628 E31.74405
G1 X184.635 Y158.391 E31.7494
G1 X184.713 Y158.133 E31.75478
G1 X184.731 Y157.859 E31.76026
G1 X184.731 Y79.946 E33.31509
G1 X184.687 Y79.579 E33.32247
G1 X184.566 Y79.226 E33.32992
G1 X184.45 Y79.002 E33.33495
G1 X184.303 Y78.786 E33.34016
G1 X184.113 Y78.566 E33.34597
G1 X183.916 Y78.392 E33.35121
G1 X183.69 Y78.241 E33.35664
G1 X183.346 Y78.083 E33.36419
G1 X183.171 Y78.031 E33.36783
G1 X146.363 Y68.351 E34.12735
G1 X145.798 Y68.208 E34.13898
G1 X145.251 Y68.098 E34.15012
G1 X144.629 Y68 E34.16268
G1 X143.984 Y67.919 E34.17566
G1 X143.365 Y67.864 E34.18806
G1 X142.849 Y67.843 E34.19836
G1 X88.547 Y67.839 E35.28202
G1 X88.298 Y67.815 E35.28701
G1 X88.043 Y67.736 E35.29234
G1 X88.014 Y67.724 E35.29296
G1 X53.064 Y49.576 E36.07885
G1 X52.831 Y49.482 E36.08387
G1 X52.478 Y49.417 E36.09103
G1 X52.228 Y49.43 E36.09603
G1 X51.918 Y49.52 E36.10247
G1 X51.563 Y49.738 E36.11078
G1 X51.333 Y50.018 E36.11801
G1 X35.484 Y77.329 E36.74816
G1 X35.35 Y77.596 E36.75412
G1 X35.288 Y77.937 E36.76103
G1 X35.28 Y78.123 E36.76475
G1 X35.345 Y78.391 E36.77025
G1 X35.455 Y78.627 E36.77545
G1 X35.631 Y78.834 E36.78087
G1 X35.838 Y78.999 E36.78615
G1 X43.66 Y83.61 E36.96735
G1 X43.89 Y83.785 E36.97312
G1 X44.105 Y84.05 E36.97993
G1 X44.238 Y84.323 E36.98599
G1 X44.302 Y84.614 E36.99194
G1 X44.306 Y84.653 E36.99272
G1 X44.358 Y106.854 E37.43577
G1 X44.358 Y107.672 E37.45209
G1 X44.37 Y112.132 E37.54109
G1 X44.374 Y113.916 E37.5767
G1 X44.432 Y121.451 E37.72707
G1 X44.498 Y164.304 E38.58225
G1 X44.529 Y164.599 E38.58817
G1 X44.573 Y164.812 E38.59251
G1 X44.722 Y165.084 E38.5987
G1 X44.914 Y165.296 E38.60441
G1 X45.172 Y165.455 E38.61045
G1 X45.454 Y165.548 E38.61638
G1 X45.704 Y165.572 E38.62139
G1 X84.107 Y165.6 E39.38777
G1 X84.351 Y165.624 E39.39266
G1 X84.615 Y165.704 E39.39816
G1 X84.886 Y165.855 E39.40435
G1 X85.135 Y166.087 E39.41115
G1 X85.363 Y166.483 E39.42026
G1 X85.444 Y166.84 E39.42757
G1 X85.468 Y167.154 E39.43385
G1 X85.518 Y167.412 E39.4391
G1 X85.644 Y167.645 E39.44438
G1 X85.828 Y167.851 E39.4499
G1 X86.054 Y167.991 E39.4552
G1 X86.318 Y168.078 E39.46075
G1 X86.599 Y168.099 E39.46637
G1 X103.107 Y168.101 E39.79581
G1 X103.601 Y168.201 E39.80587
G1 X103.89 Y168.361 E39.81246
G1 X104.154 Y168.613 E39.81974
G1 X104.37 Y169.005 E39.82867
G1 X104.444 Y169.35 E39.83571
G1 X104.47 Y169.727 E39.84326
G1 X104.589 Y170.054 E39.8502
G1 X104.741 Y170.262 E39.85534
G1 X105.017 Y170.48 E39.86236
G1 X105.344 Y170.573 E39.86914
G1 F2700 E34.86914
G0 F6000 X105.324 Y170.844
G0 X103.789 Y169.978
G0 X103.711 Y168.823
G0 X85.252 Y168.296
G0 X84.707 Y166.322
G0 X45.268 Y165.769
G1 F2700 E39.86914
G0 F6000 X45.388 Y165.313
G1 F900 X44.749 Y164.674 E39.88718
