;FLAVOR:Marlin
;TIME:23342
;Filament used: 10.3692m
;Layer height: 0.12
;MINX:33.95
;MINY:48.069
;MINZ:0.12
;MAXX:186.063
;MAXY:171.933
;MAXZ:12
;Generated with Cura_SteamEngine 5.0.0
M140 S85
M105
M190 S85
M104 S220
M105
M109 S220
M82 ;absolute extrusion mode
; Ender 3 Custom Start G-code
G92 E0 ; Reset Extruder
G28 ; Home all axes
G1 Z2.0 F3000 ; Move Z Axis up little to prevent scratching of Heat Bed
G1 X0.1 Y20 Z0.3 F5000.0 ; Move to start position
G1 X0.1 Y200.0 Z0.3 F1500.0 E15 ; Draw the first line
G1 X0.4 Y200.0 Z0.3 F5000.0 ; Move to side a little
G1 X0.4 Y20 Z0.3 F1500.0 E30 ; Draw the second line
G92 E0 ; Reset Extruder
G1 Z2.0 F3000 ; Move Z Axis up little to prevent scratching of Heat Bed
G1 X5 Y20 Z0.3 F5000.0 ; Move over to prevent blob squish
G92 E0
G92 E0
G1 F1500 E-6.5
;LAYER_COUNT:100
;LAYER:0
M107
;MESH:SofleBase-Body.stl
G0 F6000 X104.802 Y171.932 Z0.12
;TYPE:WALL-OUTER
G1 F1500 E0
G1 F900 X116.29 Y171.933 E0.22926
G1 X124.361 Y171.932 E0.39032
G1 X127.771 Y171.933 E0.45837
G1 X128.122 Y171.886 E0.46544
G1 X128.431 Y171.758 E0.47211
G1 X128.705 Y171.549 E0.47899
G1 X128.911 Y171.279 E0.48577
G1 X129.039 Y170.971 E0.49242
G1 X129.086 Y170.618 E0.49953
G1 X129.086 Y169.628 E0.51929
G1 X129.152 Y169.479 E0.52254
G1 X129.286 Y169.427 E0.52541
G1 X146.749 Y169.428 E0.8739
G1 X147.1 Y169.381 E0.88097
G1 X147.408 Y169.254 E0.88762
G1 X147.682 Y169.044 E0.8945
G1 X147.888 Y168.775 E0.90127
G1 X148.016 Y168.467 E0.90792
G1 X148.05 Y168.21 E0.9131
G1 X148.064 Y168.021 E0.91688
G1 X148.064 Y160.619 E1.06459
G1 X148.148 Y160.473 E1.06795
G1 X148.264 Y160.437 E1.07038
G1 X184.748 Y160.436 E1.79846
G1 X185.098 Y160.39 E1.8055
G1 X185.407 Y160.263 E1.81217
G1 X185.68 Y160.052 E1.81905
G1 X185.887 Y159.784 E1.82581
G1 X186.014 Y159.476 E1.83246
G1 X186.062 Y159.123 E1.83957
G1 X186.063 Y78.749 E3.44352
G1 X186.03 Y78.455 E3.44942
G1 X185.938 Y78.187 E3.45508
G1 X185.792 Y77.948 E3.46067
G1 X185.592 Y77.74 E3.46642
G1 X185.357 Y77.583 E3.47206
G1 X185.069 Y77.472 E3.47822
G1 X144.957 Y66.939 E4.30584
G1 X144.657 Y66.888 E4.31191
G1 X144.505 Y66.881 E4.31495
G1 X104.1 Y66.88 E5.12127
G1 X88.96 Y66.88 E5.42341
G1 X88.708 Y66.857 E5.42846
G1 X88.272 Y66.728 E5.43753
G1 X71.919 Y59.311 E5.79587
G1 X52.918 Y48.254 E6.23459
G1 X52.592 Y48.117 E6.24164
G1 X52.252 Y48.069 E6.2485
G1 X51.917 Y48.113 E6.25524
G1 X51.608 Y48.239 E6.2619
G1 X51.334 Y48.448 E6.26878
G1 X51.12 Y48.724 E6.27574
G1 X34.134 Y77.902 E6.9495
G1 X33.997 Y78.226 E6.95652
G1 X33.95 Y78.568 E6.96341
G1 X33.993 Y78.902 E6.97013
G1 X34.12 Y79.212 E6.97682
G1 X34.324 Y79.482 E6.98357
G1 X34.604 Y79.698 E6.99063
G1 X43.462 Y84.858 E7.19521
G1 X43.548 Y84.996 E7.19845
G1 X43.55 Y85.024 E7.19901
G1 X43.55 Y165.613 E8.80725
G1 X43.596 Y165.962 E8.81428
G1 X43.723 Y166.27 E8.82093
G1 X43.93 Y166.54 E8.82771
G1 X44.202 Y166.75 E8.83457
G1 X44.51 Y166.878 E8.84123
G1 X44.862 Y166.925 E8.84832
G1 X84.315 Y166.927 E9.63564
G1 X84.452 Y167.009 E9.63883
G1 X84.489 Y167.126 E9.64128
G1 X84.49 Y168.112 E9.66095
G1 X84.536 Y168.46 E9.66796
G1 X84.664 Y168.769 E9.67463
G1 X84.869 Y169.039 E9.6814
G1 X85.141 Y169.249 E9.68826
G1 X85.45 Y169.377 E9.69493
G1 X85.802 Y169.424 E9.70202
G1 X103.322 Y169.427 E10.05165
G1 X103.449 Y169.507 E10.05464
G1 X103.487 Y169.625 E10.05712
G1 X103.488 Y170.62 E10.07697
G1 X103.534 Y170.97 E10.08402
G1 X103.662 Y171.278 E10.09067
G1 X103.867 Y171.548 E10.09744
G1 X104.141 Y171.758 E10.10433
G1 X104.449 Y171.886 E10.11099
G1 X104.802 Y171.932 E10.11809
G0 F6000 X104.343 Y171.408
;TYPE:WALL-INNER
G1 F900 X104.668 Y171.51 E10.12489
G1 X104.893 Y171.532 E10.1294
G1 X116.29 Y171.533 E10.35684
G1 X124.361 Y171.532 E10.5179
G1 X127.745 Y171.533 E10.58544
G1 X128.017 Y171.496 E10.59091
G1 X128.322 Y171.338 E10.59777
G1 X128.561 Y171.077 E10.60483
G1 X128.663 Y170.751 E10.61165
G1 X128.686 Y170.526 E10.61616
G1 X128.686 Y169.628 E10.63408
G1 X128.753 Y169.352 E10.63975
G1 X128.919 Y169.152 E10.64494
G1 X129.145 Y169.044 E10.64993
G1 X129.286 Y169.027 E10.65277
G1 X146.723 Y169.028 E11.00074
G1 X146.996 Y168.991 E11.00624
G1 X147.297 Y168.835 E11.01301
G1 X147.538 Y168.573 E11.02011
G1 X147.641 Y168.248 E11.02691
G1 X147.664 Y168.021 E11.03147
G1 X147.664 Y160.637 E11.17882
G1 X147.718 Y160.387 E11.18393
G1 X147.867 Y160.186 E11.18892
G1 X148.093 Y160.061 E11.19407
G1 X148.264 Y160.037 E11.19752
G1 X184.722 Y160.036 E11.92508
G1 X184.994 Y160 E11.93055
G1 X185.296 Y159.843 E11.93735
G1 X185.537 Y159.582 E11.94444
G1 X185.639 Y159.259 E11.9512
G1 X185.662 Y159.028 E11.95583
G1 X185.663 Y78.771 E13.55744
G1 X185.606 Y78.452 E13.56391
G1 X185.474 Y78.194 E13.56969
G1 X185.254 Y77.995 E13.57561
G1 X185.013 Y77.879 E13.58095
G1 X184.891 Y77.84 E13.58351
G1 X144.742 Y67.296 E14.41189
G1 X144.505 Y67.281 E14.41663
G1 X104.1 Y67.28 E15.22296
G1 X88.932 Y67.279 E15.52565
G1 X88.674 Y67.259 E15.53082
G1 X88.186 Y67.121 E15.54094
G1 X88.107 Y67.092 E15.54262
G1 X71.732 Y59.664 E15.90145
G1 X52.739 Y48.613 E16.33996
G1 X52.485 Y48.506 E16.34546
G1 X52.133 Y48.489 E16.35249
G1 X51.808 Y48.589 E16.35928
G1 X51.547 Y48.827 E16.36633
G1 X51.417 Y49.01 E16.37081
G1 X34.493 Y78.082 E17.04212
G1 X34.387 Y78.333 E17.04755
G1 X34.354 Y78.57 E17.05233
G1 X34.427 Y78.906 E17.05919
G1 X34.611 Y79.198 E17.06608
G1 X34.828 Y79.366 E17.07156
G1 X43.651 Y84.505 E17.27532
G1 X43.844 Y84.684 E17.28057
G1 X43.941 Y84.92 E17.28566
G1 X43.95 Y85.024 E17.28775
G1 X43.95 Y165.587 E18.89547
G1 X43.986 Y165.857 E18.9009
G1 X44.143 Y166.16 E18.90771
G1 X44.404 Y166.4 E18.91479
G1 X44.727 Y166.503 E18.92156
G1 X44.955 Y166.525 E18.92613
G1 X84.335 Y166.527 E19.712
G1 X84.583 Y166.602 E19.71717
G1 X84.778 Y166.777 E19.7224
G1 X84.868 Y166.966 E19.72657
G1 X84.889 Y167.126 E19.72979
G1 X84.89 Y168.086 E19.74895
G1 X84.926 Y168.356 E19.75439
G1 X85.083 Y168.66 E19.76122
G1 X85.343 Y168.899 E19.76826
G1 X85.667 Y169.002 E19.77505
G1 X85.895 Y169.024 E19.77962
G1 X103.344 Y169.027 E20.12783
G1 X103.599 Y169.112 E20.1332
G1 X103.772 Y169.271 E20.13789
G1 X103.865 Y169.461 E20.14211
G1 X103.887 Y169.625 E20.14541
G1 X103.888 Y170.594 E20.16475
G1 X103.924 Y170.865 E20.1702
G1 X104.079 Y171.167 E20.17698
G1 X104.343 Y171.408 E20.18411
G0 F6000 X104.893 Y171.132
G1 F900 X116.29 Y171.133 E20.41155
G1 X124.361 Y171.132 E20.57261
G1 X127.719 Y171.133 E20.63963
G1 X127.972 Y171.082 E20.64478
G1 X128.173 Y170.926 E20.64986
G1 X128.268 Y170.696 E20.65482
G1 X128.286 Y170.526 E20.65823
G1 X128.286 Y169.628 E20.67615
G1 X128.323 Y169.356 E20.68163
G1 X128.477 Y169.038 E20.68868
G1 X128.675 Y168.836 E20.69433
G1 X128.891 Y168.709 E20.69933
G1 X129.135 Y168.639 E20.70439
G1 X129.286 Y168.627 E20.70742
G1 X146.697 Y168.628 E21.05487
G1 X146.948 Y168.578 E21.05998
G1 X147.112 Y168.472 E21.06388
G1 X147.236 Y168.256 E21.06885
G1 X147.264 Y168.021 E21.07357
G1 X147.264 Y160.637 E21.22092
G1 X147.311 Y160.332 E21.22708
G1 X147.423 Y160.095 E21.23231
G1 X147.584 Y159.903 E21.23731
G1 X147.796 Y159.753 E21.2425
G1 X148.044 Y159.661 E21.24778
G1 X148.264 Y159.637 E21.25219
G1 X184.695 Y159.636 E21.97921
G1 X184.945 Y159.587 E21.9843
G1 X185.148 Y159.431 E21.98941
G1 X185.244 Y159.2 E21.9944
G1 X185.262 Y159.029 E21.99783
G1 X185.263 Y78.793 E23.59902
G1 X185.21 Y78.529 E23.6044
G1 X185.032 Y78.328 E23.60976
G1 X184.789 Y78.226 E23.61502
G1 X144.673 Y67.692 E24.44271
G1 X144.505 Y67.681 E24.44607
G1 X104.1 Y67.68 E25.2524
G1 X88.921 Y67.679 E25.55531
G1 X88.654 Y67.659 E25.56066
G1 X88.074 Y67.505 E25.57263
G1 X87.941 Y67.456 E25.57546
G1 X71.571 Y60.031 E25.93417
G1 X71.504 Y59.995 E25.93569
G1 X52.56 Y48.971 E26.37309
G1 X52.316 Y48.887 E26.37824
G1 X52.123 Y48.893 E26.38209
G1 X51.903 Y49.021 E26.38717
G1 X51.762 Y49.211 E26.3919
G1 X34.852 Y78.261 E27.06268
G1 X34.768 Y78.504 E27.06782
G1 X34.757 Y78.572 E27.06919
G1 X34.821 Y78.813 E27.07417
G1 X35.02 Y79.008 E27.07973
G1 X35.09 Y79.054 E27.0814
G1 X43.853 Y84.159 E27.28378
G1 X44.087 Y84.348 E27.28979
G1 X44.242 Y84.571 E27.29521
G1 X44.328 Y84.815 E27.30037
G1 X44.35 Y85.024 E27.30456
G1 X44.35 Y165.56 E28.91175
G1 X44.399 Y165.809 E28.91681
G1 X44.553 Y166.01 E28.92186
G1 X44.72 Y166.098 E28.92563
G1 X44.955 Y166.125 E28.93035
G1 X84.346 Y166.127 E29.71644
G1 X84.597 Y166.174 E29.72154
G1 X84.859 Y166.304 E29.72737
G1 X85.104 Y166.545 E29.73423
G1 X85.254 Y166.859 E29.74118
G1 X85.289 Y167.126 E29.74655
G1 X85.29 Y168.059 E29.76517
G1 X85.34 Y168.309 E29.77026
G1 X85.492 Y168.509 E29.77527
G1 X85.721 Y168.605 E29.78023
G1 X85.895 Y168.624 E29.78372
G1 X103.351 Y168.626 E30.13207
G1 X103.602 Y168.675 E30.13718
G1 X103.849 Y168.797 E30.14267
G1 X104.096 Y169.036 E30.14953
G1 X104.25 Y169.352 E30.15655
G1 X104.287 Y169.625 E30.16204
G1 X104.288 Y170.567 E30.18084
G1 X104.338 Y170.82 E30.18599
G1 X104.491 Y171.018 E30.19098
G1 X104.72 Y171.114 E30.19594
G1 X104.893 Y171.132 E30.19941
G0 F6000 X104.857 Y170.768
;TYPE:SKIN
G1 F900 X127.662 Y170.772 E30.65451
G1 X127.852 Y170.718 E30.65845
G1 X127.922 Y170.561 E30.66188
G1 X127.927 Y169.607 E30.68092
G1 X127.971 Y169.28 E30.6875
G1 X128.069 Y169.021 E30.69303
G1 X128.267 Y168.727 E30.7001
G1 X128.557 Y168.479 E30.70772
G1 X128.837 Y168.343 E30.71393
G1 X129.129 Y168.277 E30.7199
G1 X129.169 Y168.273 E30.72071
G1 X137.416 Y168.27 E30.88528
G1 X139.167 Y168.271 E30.92023
G1 X146.666 Y168.268 E31.06988
G1 X146.83 Y168.213 E31.07333
G1 X146.9 Y168.057 E31.07674
G1 X146.909 Y160.515 E31.22725
G1 X146.962 Y160.244 E31.23276
G1 X147.078 Y159.972 E31.23866
G1 X147.272 Y159.706 E31.24523
G1 X147.55 Y159.48 E31.25238
G1 X147.833 Y159.347 E31.25862
G1 X148.136 Y159.283 E31.2648
G1 X148.173 Y159.28 E31.26554
G1 X184.639 Y159.276 E31.99326
G1 X184.83 Y159.22 E31.99723
G1 X184.898 Y159.066 E32.00059
G1 X184.901 Y78.799 E33.60241
G1 X184.849 Y78.652 E33.60552
G1 X184.674 Y78.568 E33.60939
G1 X144.669 Y68.065 E34.43479
G1 X144.479 Y68.045 E34.4386
G1 X88.865 Y68.036 E35.54844
G1 X88.397 Y67.976 E35.55786
G1 X87.894 Y67.824 E35.56834
G1 X87.87 Y67.815 E35.56886
G1 X71.4 Y60.349 E35.92973
G1 X52.426 Y49.312 E36.36777
G1 X52.237 Y49.258 E36.3717
G1 X52.08 Y49.384 E36.37571
G1 X40.329 Y69.568 E36.8418
G1 X35.191 Y78.397 E37.04565
G1 X35.133 Y78.547 E37.04886
G1 X35.18 Y78.662 E37.05134
G1 X35.302 Y78.755 E37.0544
G1 X44.126 Y83.907 E37.25831
G1 X44.338 Y84.09 E37.2639
G1 X44.523 Y84.337 E37.27006
G1 X44.647 Y84.614 E37.27612
G1 X44.704 Y84.908 E37.28209
G1 X44.708 Y84.943 E37.2828
G1 X44.71 Y165.503 E38.89046
G1 X44.766 Y165.693 E38.89441
G1 X44.919 Y165.761 E38.89775
G1 X84.312 Y165.767 E39.68388
G1 X84.596 Y165.798 E39.68958
G1 X84.871 Y165.895 E39.6954
G1 X85.113 Y166.045 E39.70108
G1 X85.375 Y166.309 E39.70851
G1 X85.587 Y166.723 E39.71779
G1 X85.648 Y167.102 E39.72545
G1 X85.65 Y167.128 E39.72597
G1 X85.65 Y168.007 E39.74351
G1 X85.689 Y168.17 E39.74686
G1 X85.866 Y168.26 E39.75082
G1 X103.342 Y168.265 E40.09957
G1 X103.567 Y168.293 E40.1041
G1 X103.855 Y168.388 E40.11015
G1 X104.1 Y168.536 E40.11586
G1 X104.365 Y168.799 E40.12331
G1 X104.582 Y169.214 E40.13266
G1 X104.646 Y169.6 E40.14046
G1 X104.648 Y169.627 E40.141
G1 X104.648 Y170.51 E40.15863
G1 X104.704 Y170.702 E40.16262
G1 X104.857 Y170.768 E40.16594
G1 F1500 E33.66594
G0 F6000 X104.821 Y171.027
G0 X103.936 Y170.59
G0 X103.925 Y168.987
G0 X85.056 Y168.547
G0 X84.927 Y166.488
G0 X45.062 Y166.025
G1 F1500 E40.16594
G0 F6000 X45.063 Y165.554
G1 F900 X44.909 Y165.4 E40.17029
G0 F6000 X44.909 Y164.834
G1 F900 X45.629 Y165.554 E40.19061
G0 F6000 X46.195 Y165.554
G1 F900 X44.909 Y164.268 E40.2269
G0 F6000 X44.909 Y163.702
G1 F900 X46.76 Y165.554 E40.27916
G0 F6000 X47.327 Y165.555
G1 F900 X44.909 Y163.137 E40.3474
G0 F6000 X44.909 Y162.571
G1 F900 X47.893 Y165.555 E40.43161
G0 F6000 X48.458 Y165.555
G1 F900 X44.909 Y162.005 E40.53179
G0 F6000 X44.909 Y161.44
G1 F900 X49.024 Y165.555 E40.64792
G0 F6000 X49.59 Y165.556
G1 F900 X44.909 Y160.874 E40.78004
G0 F6000 X44.909 Y160.308
G1 F900 X50.156 Y165.556 E40.92814
G0 F6000 X50.722 Y165.556
G1 F900 X44.909 Y159.743 E41.09219
G0 F6000 X44.909 Y159.177
G1 F900 X51.287 Y165.556 E41.27221
G0 F6000 X51.853 Y165.556
G1 F900 X44.909 Y158.611 E41.4682
G0 F6000 X44.909 Y158.046
G1 F900 X52.419 Y165.557 E41.68016
G0 F6000 X52.985 Y165.557
G1 F900 X44.909 Y157.48 E41.9081
G0 F6000 X44.909 Y156.914
G1 F900 X53.551 Y165.557 E42.15201
G0 F6000 X54.117 Y165.557
G1 F900 X44.909 Y156.349 E42.41188
G0 F6000 X44.909 Y155.783
G1 F900 X54.683 Y165.557 E42.68772
G0 F6000 X55.249 Y165.557
G1 F900 X44.908 Y155.217 E42.97955
G0 F6000 X44.908 Y154.651
G1 F900 X55.814 Y165.557 E43.28734
G0 F6000 X56.38 Y165.557
G1 F900 X44.908 Y154.085 E43.61111
G0 F6000 X44.908 Y153.519
G1 F900 X56.946 Y165.558 E43.95086
G0 F6000 X57.512 Y165.558
G1 F900 X44.908 Y152.954 E44.30657
G0 F6000 X44.908 Y152.388
G1 F900 X58.078 Y165.558 E44.67826
G0 F6000 X58.643 Y165.558
G1 F900 X44.908 Y151.822 E45.0659
G0 F6000 X44.908 Y151.257
G1 F900 X59.21 Y165.559 E45.46954
G0 F6000 X59.775 Y165.559
G1 F900 X44.908 Y150.691 E45.88913
G0 F6000 X44.908 Y150.125
G1 F900 X60.341 Y165.559 E46.3247
G0 F6000 X60.907 Y165.559
G1 F900 X44.908 Y149.56 E46.77622
G0 F6000 X44.908 Y148.994
G1 F900 X61.473 Y165.559 E47.24372
G0 F6000 X62.039 Y165.559
G1 F900 X44.908 Y148.428 E47.7272
G0 F6000 X44.908 Y147.863
G1 F900 X62.605 Y165.559 E48.22663
G0 F6000 X63.17 Y165.559
G1 F900 X44.908 Y147.297 E48.74202
G0 F6000 X44.908 Y146.731
G1 F900 X63.737 Y165.56 E49.27342
G0 F6000 X64.302 Y165.56
G1 F900 X44.908 Y146.166 E49.82076
G0 F6000 X44.908 Y145.6
G1 F900 X64.868 Y165.56 E50.38407
G0 F6000 X65.434 Y165.56
G1 F900 X44.907 Y145.033 E50.96339
G0 F6000 X44.907 Y144.468
G1 F900 X66 Y165.561 E51.55868
G0 F6000 X66.566 Y165.561
G1 F900 X44.907 Y143.902 E52.16994
G0 F6000 X44.907 Y143.336
G1 F900 X67.132 Y165.561 E52.79718
G0 F6000 X67.697 Y165.561
G1 F900 X44.907 Y142.771 E53.44036
G0 F6000 X44.907 Y142.205
G1 F900 X68.264 Y165.561 E54.09953
G0 F6000 X68.829 Y165.561
G1 F900 X44.907 Y141.639 E54.77466
G0 F6000 X44.907 Y141.074
G1 F900 X69.395 Y165.561 E55.46575
G0 F6000 X69.961 Y165.561
G1 F900 X44.907 Y140.508 E56.17282
G0 F6000 X44.907 Y139.942
G1 F900 X70.527 Y165.562 E56.89587
G0 F6000 X71.093 Y165.562
G1 F900 X44.907 Y139.377 E57.63488
G0 F6000 X44.907 Y138.811
G1 F900 X71.658 Y165.562 E58.38985
G0 F6000 X72.224 Y165.562
G1 F900 X44.907 Y138.245 E59.1608
G0 F6000 X44.907 Y137.68
G1 F900 X72.79 Y165.563 E59.94772
G0 F6000 X73.356 Y165.563
G1 F900 X44.907 Y137.114 E60.75061
G0 F6000 X44.907 Y136.548
G1 F900 X73.922 Y165.563 E61.56947
G0 F6000 X74.488 Y165.563
G1 F900 X44.907 Y135.982 E62.40431
G0 F6000 X44.907 Y135.417
G1 F900 X75.053 Y165.563 E63.2551
G0 F6000 X75.62 Y165.564
G1 F900 X44.906 Y134.85 E64.12191
G0 F6000 X44.906 Y134.285
G1 F900 X76.185 Y165.564 E65.00468
G0 F6000 X76.751 Y165.564
G1 F900 X44.906 Y133.719 E65.90341
G0 F6000 X44.906 Y133.153
G1 F900 X77.317 Y165.564 E66.81812
G0 F6000 X77.883 Y165.564
G1 F900 X44.906 Y132.588 E67.74879
G0 F6000 X44.906 Y132.022
G1 F900 X78.449 Y165.564 E68.69543
G0 F6000 X79.014 Y165.564
G1 F900 X44.906 Y131.456 E69.65803
G0 F6000 X44.906 Y130.891
G1 F900 X79.58 Y165.564 E70.63659
G0 F6000 X80.147 Y165.565
G1 F900 X44.906 Y130.325 E71.63115
G0 F6000 X44.906 Y129.759
G1 F900 X80.712 Y165.565 E72.64168
G0 F6000 X81.278 Y165.565
G1 F900 X44.906 Y129.194 E73.66816
G0 F6000 X44.906 Y128.628
G1 F900 X81.844 Y165.565 E74.71061
G0 F6000 X82.41 Y165.566
G1 F900 X44.906 Y128.062 E75.76906
G0 F6000 X44.906 Y127.497
G1 F900 X82.976 Y165.566 E76.84346
G0 F6000 X83.541 Y165.566
G1 F900 X44.906 Y126.931 E77.93383
G0 F6000 X44.906 Y126.365
G1 F900 X84.107 Y165.566 E79.04016
G0 F6000 X84.746 Y165.639
G1 F900 X44.906 Y125.799 E80.16453
G0 F6000 X44.906 Y125.234
G1 F900 X87.729 Y168.056 E81.37308
G0 F6000 X87.163 Y168.056
G1 F900 X85.755 Y166.648 E81.41281
G0 F6000 X85.846 Y167.304
G1 F900 X86.597 Y168.055 E81.43401
G0 F6000 X86.031 Y168.055
G1 F900 X85.849 Y167.873 E81.43914
G0 F6000 X85.389 Y167.873
G0 X85.556 Y168.355
G0 X85.83 Y168.443
G0 X88.295 Y168.525
G0 X88.295 Y168.057
G1 F900 X44.906 Y124.667 E82.66369
G0 F6000 X44.906 Y124.102
