;FLAVOR:Marlin
;TIME:10539
;Filament used: 5.81396m
;Layer height: 0.2
;MINX:26.653
;MINY:40.778
;MINZ:0.2
;MAXX:192.136
;MAXY:179.236
;MAXZ:2
;Generated with Cura_SteamEngine 4.8.0
M140 S60
M105
M190 S60
M104 S200
M105
M109 S200
M82 ;absolute extrusion mode
; Ender 3 Custom Start G-code
G92 E0 ; Reset Extruder
G28 ; Home all axes
G1 Z2.0 F3000 ; Move Z Axis up little to prevent scratching of Heat Bed
G1 X0.1 Y20 Z0.3 F5000.0 ; Move to start position
G1 X0.1 Y200.0 Z0.3 F1500.0 E15 ; Draw the first line
G1 X0.4 Y200.0 Z0.3 F5000.0 ; Move to side a little
G1 X0.4 Y20 Z0.3 F1500.0 E30 ; Draw the second line
G92 E0 ; Reset Extruder
G1 Z2.0 F3000 ; Move Z Axis up little to prevent scratching of Heat Bed
G1 X5 Y20 Z0.3 F5000.0 ; Move over to prevent blob squish
G92 E0
G92 E0
G1 F1500 E-6.5
;LAYER_COUNT:10
;LAYER:0
M107
G0 F6000 X44.438 Y43.92 Z0.2
;TYPE:SKIRT
G1 F1500 E0
G1 F1200 X45.135 Y43.292 E0.0312
G1 X45.884 Y42.727 E0.06241
G1 X46.677 Y42.227 E0.09359
G1 X47.511 Y41.797 E0.1248
G1 X48.378 Y41.44 E0.15598
G1 X49.272 Y41.157 E0.18717
G1 X50.187 Y40.952 E0.21836
G1 X51.116 Y40.825 E0.24955
G1 X52.053 Y40.778 E0.28075
G1 X52.99 Y40.811 E0.31193
G1 X53.921 Y40.924 E0.34313
G1 X54.84 Y41.116 E0.37435
G1 X55.738 Y41.385 E0.40553
G1 X56.61 Y41.729 E0.43671
G1 X57.315 Y42.074 E0.46281
G1 X57.448 Y42.145 E0.46783
G1 X57.735 Y42.304 E0.47874
G1 X58.166 Y42.551 E0.49526
G1 X64.808 Y46.456 E0.75153
G1 X67.044 Y47.729 E0.83711
G1 X69.257 Y48.907 E0.92049
G1 X71.504 Y50.023 E1.00394
G1 X73.793 Y51.08 E1.08779
G1 X76.089 Y52.061 E1.17084
G1 X78.449 Y52.993 E1.25523
G1 X80.832 Y53.857 E1.33954
G1 X83.208 Y54.642 E1.42277
G1 X85.622 Y55.366 E1.50659
G1 X88.053 Y56.02 E1.59032
G1 X90.518 Y56.61 E1.67462
G1 X92.954 Y57.118 E1.75739
G1 X95.447 Y57.566 E1.84163
G1 X97.946 Y57.943 E1.92569
G1 X100.425 Y58.245 E2.00875
G1 X102.916 Y58.478 E2.09196
G1 X105.446 Y58.643 E2.17629
G1 X108.002 Y58.736 E2.26136
G1 X109.988 Y58.758 E2.32742
G1 X142.585 Y58.759 E3.4116
G1 X143.282 Y58.769 E3.43478
G1 X144.218 Y58.823 E3.46597
G1 X145.147 Y58.956 E3.49718
G1 X145.766 Y59.09 E3.51825
G1 X146.707 Y59.324 E3.5505
G1 X183.401 Y68.978 E4.81248
G1 X184.057 Y69.16 E4.83512
G1 X184.949 Y69.449 E4.8663
G1 X185.813 Y69.813 E4.89749
G1 X186.644 Y70.25 E4.92872
G1 X187.434 Y70.755 E4.9599
G1 X188.178 Y71.326 E4.99109
G1 X188.87 Y71.958 E5.02226
G1 X189.507 Y72.647 E5.05347
G1 X190.082 Y73.388 E5.08467
G1 X190.592 Y74.175 E5.11586
G1 X191.034 Y75.002 E5.14705
G1 X191.403 Y75.864 E5.17824
G1 X191.698 Y76.755 E5.20945
G1 X191.915 Y77.667 E5.24063
G1 X192.054 Y78.595 E5.27184
G1 X192.114 Y79.541 E5.30337
G1 X192.134 Y80.545 E5.33677
G1 X192.136 Y80.764 E5.34405
G1 X192.135 Y155.156 E7.81834
G1 X192.125 Y155.883 E7.84252
G1 X192.072 Y156.82 E7.87374
G1 X191.94 Y157.748 E7.90491
G1 X191.729 Y158.662 E7.93611
G1 X191.44 Y159.554 E7.9673
G1 X191.077 Y160.419 E7.9985
G1 X190.642 Y161.25 E8.0297
G1 X190.137 Y162.04 E8.06088
G1 X189.567 Y162.785 E8.09208
G1 X188.936 Y163.479 E8.12328
G1 X188.247 Y164.116 E8.15449
G1 X187.507 Y164.692 E8.18568
G1 X186.721 Y165.203 E8.21686
G1 X185.894 Y165.645 E8.24805
G1 X185.032 Y166.015 E8.27925
G1 X184.142 Y166.31 E8.31043
G1 X183.23 Y166.529 E8.34163
G1 X182.303 Y166.669 E8.37281
G1 X181.76 Y166.714 E8.39093
G1 X180.939 Y166.76 E8.41828
G1 X179.617 Y166.817 E8.46229
G1 X177.078 Y166.999 E8.54696
G1 X174.613 Y167.247 E8.62936
G1 X172.074 Y167.574 E8.7145
G1 X169.638 Y167.959 E8.79653
G1 X167.112 Y168.431 E8.882
G1 X164.708 Y168.951 E8.96381
G1 X162.241 Y169.558 E9.04831
G1 X159.791 Y170.235 E9.13285
G1 X157.405 Y170.968 E9.21587
G1 X154.996 Y171.783 E9.30045
G1 X152.664 Y172.645 E9.38314
G1 X150.338 Y173.582 E9.46655
G1 X147.862 Y174.662 E9.55639
G1 X147.649 Y174.758 E9.56416
G1 X146.778 Y175.107 E9.59537
G1 X145.881 Y175.38 E9.62656
G1 X144.963 Y175.575 E9.65777
G1 X143.777 Y175.71 E9.69747
G1 X143.059 Y175.751 E9.72139
G1 X141.515 Y175.817 E9.77279
G1 X138.998 Y175.998 E9.85672
G1 X136.507 Y176.247 E9.93999
G1 X134.007 Y176.569 E10.02383
G1 X131.506 Y176.963 E10.10804
G1 X129.041 Y177.423 E10.19144
G1 X126.446 Y177.983 E10.27973
G1 X125.522 Y178.142 E10.31092
G1 X124.434 Y178.227 E10.34722
G1 X124.114 Y178.236 E10.35786
G1 X123.805 Y178.24 E10.36814
G1 X106.669 Y178.239 E10.93809
G1 X105.96 Y178.228 E10.96167
G1 X105.024 Y178.173 E10.99286
G1 X104.127 Y178.045 E11.02299
G1 X103.1 Y177.855 E11.05773
G1 X100.606 Y177.428 E11.14189
G1 X98.081 Y177.069 E11.22671
G1 X95.587 Y176.786 E11.3102
G1 X93.082 Y176.574 E11.39381
G1 X90.56 Y176.432 E11.47783
G1 X88.036 Y176.361 E11.56181
G1 X85.512 Y176.361 E11.64576
G1 X83.027 Y176.432 E11.72844
G1 X80.494 Y176.577 E11.81283
G1 X77.994 Y176.79 E11.89628
G1 X75.504 Y177.073 E11.97963
G1 X72.996 Y177.43 E12.06389
G1 X70.535 Y177.853 E12.14694
G1 X68.008 Y178.361 E12.23267
G1 X66.734 Y178.644 E12.27608
G1 X65.425 Y178.946 E12.32076
G1 X64.503 Y179.117 E12.35195
G1 X63.263 Y179.223 E12.39334
G1 X62.943 Y179.232 E12.40399
G1 X62.633 Y179.236 E12.4143
G1 X42.555 Y179.234 E13.0821
G1 X41.861 Y179.225 E13.10518
G1 X40.925 Y179.173 E13.13636
G1 X39.996 Y179.041 E13.16757
G1 X39.082 Y178.831 E13.19876
G1 X38.19 Y178.543 E13.22994
G1 X37.325 Y178.181 E13.26113
G1 X36.494 Y177.746 E13.29232
G1 X35.703 Y177.242 E13.32352
G1 X34.958 Y176.673 E13.3547
G1 X34.264 Y176.042 E13.38589
G1 X33.626 Y175.354 E13.4171
G1 X33.049 Y174.614 E13.44831
G1 X32.538 Y173.828 E13.47949
G1 X32.095 Y173.002 E13.51067
G1 X31.724 Y172.14 E13.54188
G1 X31.428 Y171.25 E13.57308
G1 X31.209 Y170.338 E13.60427
G1 X31.068 Y169.411 E13.63546
G1 X31.009 Y168.555 E13.664
G1 X30.999 Y168.221 E13.67511
G1 X30.994 Y167.892 E13.68606
G1 X30.995 Y110.574 E15.59246
G1 X31.011 Y109.425 E15.63068
G1 X31.065 Y107.521 E15.69403
G1 X31.067 Y104.998 E15.77795
G1 X30.996 Y102.477 E15.86183
G1 X30.855 Y99.958 E15.94574
G1 X30.641 Y97.433 E16.03003
G1 X30.36 Y94.953 E16.11304
G1 X30.005 Y92.451 E16.19709
G1 X29.583 Y89.984 E16.28033
G1 X29.097 Y87.547 E16.36298
G1 X28.518 Y85.033 E16.44879
G1 X27.893 Y82.627 E16.53147
G1 X27.352 Y80.736 E16.59689
G1 X27.108 Y79.923 E16.62512
G1 X26.878 Y79.014 E16.65631
G1 X26.726 Y78.089 E16.68748
G1 X26.653 Y77.154 E16.71868
G1 X26.66 Y76.216 E16.74988
G1 X26.747 Y75.282 E16.78108
G1 X26.913 Y74.359 E16.81227
G1 X27.157 Y73.454 E16.84344
G1 X27.478 Y72.572 E16.87466
G1 X28.036 Y71.415 E16.91738
G1 X28.49 Y70.6 E16.94841
G1 X28.585 Y70.433 E16.9548
G1 X42.273 Y46.837 E17.8621
G1 X42.7 Y46.123 E17.88977
G1 X43.216 Y45.34 E17.92096
G1 X43.796 Y44.604 E17.95213
G1 X44.438 Y43.92 E17.98333
G0 F6000 X44.754 Y44.17
G1 F1200 X45.442 Y43.558 E18.01395
G1 X46.181 Y43.008 E18.04459
G1 X46.964 Y42.525 E18.07519
G1 X47.786 Y42.111 E18.1058
G1 X48.642 Y41.77 E18.13645
G1 X49.523 Y41.505 E18.16705
G1 X50.425 Y41.317 E18.19769
G1 X51.339 Y41.208 E18.22831
G1 X52.259 Y41.179 E18.25892
G1 X53.178 Y41.229 E18.28954
G1 X54.09 Y41.36 E18.32018
G1 X54.986 Y41.569 E18.35078
G1 X55.861 Y41.855 E18.3814
G1 X56.708 Y42.215 E18.41201
G1 X57.127 Y42.427 E18.42763
G1 X57.26 Y42.498 E18.43264
G1 X57.536 Y42.651 E18.44314
G1 X57.963 Y42.896 E18.45951
G1 X64.613 Y46.806 E18.71609
G1 X66.837 Y48.072 E18.80121
G1 X69.07 Y49.26 E18.88533
G1 X71.337 Y50.386 E18.96952
G1 X73.634 Y51.447 E19.05368
G1 X75.934 Y52.429 E19.13686
G1 X78.302 Y53.366 E19.22156
G1 X80.718 Y54.241 E19.30702
G1 X83.072 Y55.019 E19.38948
G1 X85.508 Y55.749 E19.47406
G1 X87.961 Y56.409 E19.55855
G1 X90.448 Y57.004 E19.6436
G1 X92.873 Y57.51 E19.726
G1 X95.388 Y57.962 E19.81099
G1 X97.87 Y58.337 E19.89448
G1 X100.376 Y58.642 E19.97844
G1 X102.889 Y58.877 E20.06239
G1 X105.441 Y59.043 E20.14745
G1 X107.983 Y59.136 E20.23205
G1 X109.983 Y59.158 E20.29857
G1 X142.579 Y59.159 E21.38272
G1 X143.276 Y59.169 E21.40591
G1 X144.195 Y59.222 E21.43652
G1 X145.106 Y59.355 E21.46714
G1 X145.67 Y59.478 E21.48634
G1 X146.605 Y59.711 E21.51839
G1 X183.294 Y69.364 E22.7802
G1 X183.95 Y69.546 E22.80285
G1 X184.825 Y69.83 E22.83344
G1 X185.673 Y70.19 E22.86409
G1 X186.486 Y70.621 E22.89469
G1 X187.259 Y71.122 E22.92533
G1 X187.985 Y71.687 E22.95593
G1 X188.66 Y72.314 E22.98657
G1 X189.278 Y72.996 E23.01718
G1 X189.834 Y73.73 E23.0478
G1 X190.324 Y74.509 E23.07841
G1 X190.745 Y75.328 E23.10904
G1 X191.093 Y76.18 E23.13965
G1 X191.366 Y77.06 E23.1703
G1 X191.562 Y77.959 E23.2009
G1 X191.679 Y78.872 E23.23152
G1 X191.714 Y79.549 E23.25406
G1 X191.734 Y80.553 E23.28746
G1 X191.736 Y80.764 E23.29448
G1 X191.735 Y155.151 E25.7686
G1 X191.725 Y155.878 E25.79278
G1 X191.672 Y156.797 E25.8234
G1 X191.54 Y157.708 E25.85402
G1 X191.329 Y158.604 E25.88463
G1 X191.042 Y159.479 E25.91526
G1 X190.679 Y160.325 E25.94588
G1 X190.245 Y161.137 E25.9765
G1 X189.741 Y161.908 E26.00714
G1 X189.173 Y162.632 E26.03775
G1 X188.544 Y163.304 E26.06836
G1 X187.859 Y163.919 E26.09898
G1 X187.123 Y164.472 E26.1296
G1 X186.342 Y164.96 E26.16023
G1 X185.522 Y165.378 E26.19084
G1 X184.668 Y165.723 E26.22148
G1 X183.788 Y165.992 E26.25208
G1 X182.887 Y166.185 E26.28273
G1 X181.737 Y166.314 E26.32122
G1 X180.922 Y166.36 E26.34837
G1 X179.605 Y166.416 E26.39221
G1 X177.046 Y166.601 E26.47755
G1 X174.558 Y166.85 E26.56071
G1 X172.027 Y167.177 E26.64559
G1 X169.539 Y167.569 E26.72936
G1 X167.059 Y168.033 E26.81328
G1 X164.608 Y168.563 E26.89669
G1 X162.136 Y169.171 E26.98135
G1 X159.714 Y169.84 E27.06493
G1 X157.265 Y170.593 E27.15014
G1 X154.865 Y171.405 E27.23441
G1 X152.524 Y172.271 E27.31743
G1 X150.165 Y173.221 E27.40202
G1 X147.758 Y174.27 E27.48935
G1 X147.484 Y174.394 E27.49935
G1 X146.629 Y174.735 E27.52997
G1 X145.748 Y175.001 E27.56057
G1 X144.847 Y175.189 E27.59119
G1 X143.753 Y175.311 E27.6278
G1 X143.042 Y175.351 E27.65148
G1 X141.503 Y175.417 E27.70272
G1 X138.965 Y175.599 E27.78735
G1 X136.453 Y175.851 E27.87132
G1 X133.965 Y176.171 E27.95475
G1 X131.442 Y176.568 E28.0397
G1 X128.955 Y177.032 E28.12384
G1 X126.362 Y177.592 E28.21208
G1 X125.454 Y177.747 E28.24271
G1 X124.423 Y177.827 E28.27711
G1 X124.103 Y177.836 E28.28775
G1 X123.805 Y177.84 E28.29767
G1 X106.676 Y177.839 E28.86738
G1 X105.967 Y177.828 E28.89096
G1 X105.048 Y177.773 E28.92159
G1 X104.199 Y177.652 E28.95011
G1 X103.162 Y177.46 E28.98519
G1 X100.657 Y177.031 E29.06971
G1 X98.111 Y176.669 E29.15525
G1 X95.63 Y176.388 E29.23829
G1 X93.102 Y176.173 E29.32268
G1 X90.595 Y176.032 E29.40619
G1 X88.047 Y175.961 E29.49097
G1 X85.536 Y175.961 E29.57449
G1 X82.992 Y176.034 E29.65914
G1 X80.477 Y176.177 E29.74292
G1 X77.944 Y176.393 E29.82748
G1 X75.438 Y176.678 E29.91136
G1 X72.943 Y177.034 E29.99519
G1 X70.426 Y177.466 E30.08013
G1 X67.939 Y177.966 E30.1645
G1 X66.684 Y178.245 E30.20726
G1 X65.335 Y178.556 E30.25331
G1 X64.43 Y178.724 E30.28392
G1 X63.252 Y178.823 E30.32324
G1 X62.932 Y178.832 E30.33389
G1 X62.633 Y178.836 E30.34383
G1 X42.561 Y178.834 E31.01143
G1 X41.867 Y178.825 E31.03451
G1 X40.947 Y178.773 E31.06516
G1 X40.036 Y178.642 E31.09577
G1 X39.14 Y178.432 E31.12638
G1 X38.265 Y178.145 E31.15701
G1 X37.418 Y177.783 E31.18765
G1 X36.606 Y177.349 E31.21827
G1 X35.835 Y176.846 E31.24889
G1 X35.111 Y176.278 E31.27949
G1 X34.438 Y175.65 E31.31011
G1 X33.822 Y174.965 E31.34075
G1 X33.268 Y174.23 E31.37136
G1 X32.78 Y173.449 E31.40199
G1 X32.362 Y172.629 E31.43261
G1 X32.016 Y171.776 E31.46322
G1 X31.746 Y170.896 E31.49384
G1 X31.553 Y169.996 E31.52445
G1 X31.439 Y169.082 E31.55509
G1 X31.409 Y168.543 E31.57304
G1 X31.399 Y168.209 E31.58416
G1 X31.394 Y167.892 E31.5947
G1 X31.395 Y110.579 E33.50094
G1 X31.414 Y109.273 E33.54438
G1 X31.465 Y107.497 E33.60348
G1 X31.467 Y104.987 E33.68696
G1 X31.396 Y102.444 E33.77157
G1 X31.255 Y99.936 E33.85512
G1 X31.042 Y97.425 E33.93894
G1 X30.755 Y94.888 E34.02386
G1 X30.401 Y92.393 E34.10767
G1 X29.976 Y89.909 E34.19149
G1 X29.485 Y87.451 E34.27486
G1 X28.909 Y84.948 E34.36028
G1 X28.274 Y82.505 E34.44424
G1 X27.759 Y80.704 E34.50654
G1 X27.491 Y79.809 E34.53761
G1 X27.266 Y78.916 E34.56824
G1 X27.119 Y78.007 E34.59887
G1 X27.051 Y77.089 E34.62949
G1 X27.063 Y76.169 E34.66009
G1 X27.155 Y75.253 E34.69071
G1 X27.326 Y74.348 E34.72134
G1 X27.575 Y73.462 E34.75195
G1 X27.9 Y72.6 E34.78259
G1 X28.386 Y71.61 E34.81927
G1 X28.931 Y70.634 E34.85645
G1 X42.696 Y46.908 E35.76877
G1 X43.043 Y46.329 E35.79123
G1 X43.55 Y45.561 E35.82183
G1 X44.122 Y44.839 E35.85247
G1 X44.754 Y44.17 E35.88308
G0 F6000 X45.07 Y44.421
G1 F1200 X45.748 Y43.825 E35.91311
G1 X46.477 Y43.291 E35.94316
G1 X47.25 Y42.824 E35.9732
G1 X48.061 Y42.427 E36.00323
G1 X48.904 Y42.103 E36.03327
G1 X49.772 Y41.855 E36.06329
G1 X50.659 Y41.685 E36.09333
G1 X51.558 Y41.594 E36.12339
G1 X52.461 Y41.583 E36.15342
G1 X53.361 Y41.652 E36.18344
G1 X54.252 Y41.8 E36.21349
G1 X55.126 Y42.026 E36.24351
G1 X55.977 Y42.329 E36.27356
G1 X56.939 Y42.78 E36.30889
G1 X57.072 Y42.851 E36.31391
G1 X57.337 Y42.998 E36.32399
G1 X57.761 Y43.241 E36.34024
G1 X64.396 Y47.142 E36.59624
G1 X66.657 Y48.429 E36.68277
G1 X68.883 Y49.614 E36.76664
G1 X71.156 Y50.743 E36.85106
G1 X73.459 Y51.806 E36.93542
G1 X75.81 Y52.81 E37.02045
G1 X78.197 Y53.754 E37.10582
G1 X80.55 Y54.606 E37.18905
G1 X82.937 Y55.396 E37.27268
G1 X85.404 Y56.135 E37.35834
G1 X87.869 Y56.798 E37.44324
G1 X90.346 Y57.391 E37.52795
G1 X92.82 Y57.907 E37.61201
G1 X95.295 Y58.352 E37.69565
G1 X97.834 Y58.735 E37.78105
G1 X100.327 Y59.039 E37.86458
G1 X102.897 Y59.279 E37.95043
G1 X105.4 Y59.442 E38.03386
G1 X107.965 Y59.536 E38.11923
G1 X109.979 Y59.558 E38.18622
G1 X142.573 Y59.559 E39.2703
G1 X143.27 Y59.569 E39.29348
G1 X144.172 Y59.622 E39.32353
G1 X145.065 Y59.754 E39.35356
G1 X145.574 Y59.867 E39.3709
G1 X146.503 Y60.098 E39.40274
G1 X183.187 Y69.749 E40.66437
G1 X183.843 Y69.931 E40.68702
G1 X184.702 Y70.211 E40.71706
G1 X185.532 Y70.566 E40.74709
G1 X186.328 Y70.992 E40.77712
G1 X187.083 Y71.488 E40.80716
G1 X187.792 Y72.048 E40.83721
G1 X188.448 Y72.669 E40.86726
G1 X189.046 Y73.345 E40.89728
G1 X189.582 Y74.071 E40.92729
G1 X190.052 Y74.843 E40.95735
G1 X190.452 Y75.652 E40.98737
G1 X190.779 Y76.494 E41.01741
G1 X191.03 Y77.362 E41.04746
G1 X191.203 Y78.248 E41.07749
G1 X191.314 Y79.557 E41.12118
G1 X191.334 Y80.561 E41.15458
G1 X191.336 Y80.764 E41.16134
G1 X191.335 Y155.145 E43.63526
G1 X191.325 Y155.872 E43.65944
G1 X191.273 Y156.774 E43.68949
G1 X191.141 Y157.667 E43.71951
G1 X190.93 Y158.546 E43.74958
G1 X190.643 Y159.402 E43.77961
G1 X190.281 Y160.229 E43.80963
G1 X189.847 Y161.021 E43.83967
G1 X189.345 Y161.772 E43.86972
G1 X188.779 Y162.475 E43.89974
G1 X188.152 Y163.126 E43.9298
G1 X187.471 Y163.718 E43.95981
G1 X186.74 Y164.248 E43.98984
G1 X185.964 Y164.711 E44.0199
G1 X185.151 Y165.104 E44.04993
G1 X184.306 Y165.424 E44.07998
G1 X183.437 Y165.667 E44.10999
G1 X182.549 Y165.832 E44.14003
G1 X181.714 Y165.915 E44.16794
G1 X180.905 Y165.961 E44.19489
G1 X179.558 Y166.019 E44.23974
G1 X177.013 Y166.202 E44.3246
G1 X174.503 Y166.454 E44.40851
G1 X171.985 Y166.778 E44.49295
G1 X169.475 Y167.175 E44.57747
G1 X166.974 Y167.642 E44.66209
G1 X164.525 Y168.172 E44.74543
G1 X162.048 Y168.781 E44.83027
G1 X159.553 Y169.471 E44.91636
G1 X157.167 Y170.204 E44.99938
G1 X154.747 Y171.022 E45.08435
G1 X152.361 Y171.905 E45.16897
G1 X150.004 Y172.854 E45.25348
G1 X147.612 Y173.897 E45.34027
G1 X147.32 Y174.029 E45.35093
G1 X146.481 Y174.363 E45.38096
G1 X145.616 Y174.622 E45.41099
G1 X144.731 Y174.803 E45.44104
G1 X143.73 Y174.911 E45.47452
G1 X143.025 Y174.952 E45.49801
G1 X141.459 Y175.019 E45.55015
G1 X138.93 Y175.2 E45.63448
G1 X136.433 Y175.451 E45.71794
G1 X133.883 Y175.779 E45.80346
G1 X131.378 Y176.173 E45.8878
G1 X128.868 Y176.642 E45.97273
