;FLAVOR:Marlin
;TIME:26951
;Filament used: 11.4414m
;Layer height: 0.12
;MINX:34.26
;MINY:48.531
;MINZ:0.12
;MAXX:185.742
;MAXY:171.469
;MAXZ:9.96
;Generated with Cura_SteamEngine 4.8.0
M140 S70
M105
M190 S70
M104 S240
M105
M109 S240
M82 ;absolute extrusion mode
; Ender 3 Custom Start G-code
G92 E0 ; Reset Extruder
G28 ; Home all axes
G1 Z2.0 F3000 ; Move Z Axis up little to prevent scratching of Heat Bed
G1 X0.1 Y20 Z0.3 F5000.0 ; Move to start position
G1 X0.1 Y200.0 Z0.3 F1500.0 E15 ; Draw the first line
G1 X0.4 Y200.0 Z0.3 F5000.0 ; Move to side a little
G1 X0.4 Y20 Z0.3 F1500.0 E30 ; Draw the second line
G92 E0 ; Reset Extruder
G1 Z2.0 F3000 ; Move Z Axis up little to prevent scratching of Heat Bed
G1 X5 Y20 Z0.3 F5000.0 ; Move over to prevent blob squish
G92 E0
G92 E0
G1 F2100 E-7.5
;LAYER_COUNT:83
;LAYER:0
M107
;MESH:SofleBase04.stl
G0 F6000 X105.529 Y170.269 Z0.12
;TYPE:WALL-INNER
G1 F2100 E0
G1 F900 X105.529 Y170.006 E0.00525
G1 X105.43 Y169.377 E0.01796
G1 X105.089 Y168.712 E0.03287
G1 X104.562 Y168.185 E0.04774
G1 X103.897 Y167.844 E0.06266
G1 X103.268 Y167.745 E0.07536
G1 X86.339 Y167.743 E0.4132
G1 X86.339 Y167.48 E0.41845
G1 X86.24 Y166.853 E0.43112
G1 X85.902 Y166.186 E0.44604
G1 X85.373 Y165.656 E0.46098
G1 X84.706 Y165.318 E0.4759
G1 X84.078 Y165.219 E0.48859
G1 X44.978 Y165.19 E1.26887
G1 X44.79 Y84.918 E2.87079
G1 X44.721 Y84.362 E2.88197
G1 X44.507 Y83.755 E2.89482
G1 X44.195 Y83.212 E2.90731
G1 X43.784 Y82.727 E2.92
G1 X43.339 Y82.383 E2.93123
G1 X35.608 Y77.835 E3.11022
G1 X51.845 Y49.843 E3.75601
G1 X86.738 Y67.969 E4.54068
G1 X87.156 Y68.153 E4.5498
G1 X87.649 Y68.315 E4.56015
G1 X88.159 Y68.439 E4.57063
G1 X88.674 Y68.524 E4.58104
G1 X89.129 Y68.553 E4.59014
G1 X143.903 Y68.553 E5.68322
G1 X144.248 Y68.565 E5.69011
G1 X144.527 Y68.59 E5.6957
G1 X144.936 Y68.643 E5.70393
G1 X145.233 Y68.693 E5.70994
G1 X145.509 Y68.756 E5.71559
G1 X184.496 Y79.012 E6.52008
G1 X184.542 Y79.075 E6.52164
G1 X184.542 Y158.655 E8.10975
G1 X148.418 Y158.655 E8.83064
G1 X147.792 Y158.755 E8.84329
G1 X147.127 Y159.092 E8.85817
G1 X146.597 Y159.622 E8.87313
G1 X146.26 Y160.287 E8.888
G1 X146.16 Y160.913 E8.90065
G1 X146.16 Y167.743 E9.03695
G1 X129.231 Y167.743 E9.37479
G1 X128.604 Y167.842 E9.38746
G1 X127.937 Y168.18 E9.40238
G1 X127.408 Y168.71 E9.41732
G1 X127.071 Y169.373 E9.43217
G1 X126.97 Y170.001 E9.44486
G1 X126.97 Y170.269 E9.45021
G1 X105.529 Y170.269 E9.87809
G0 F6000 X105.203 Y170.669
G1 F900 X105.129 Y170.622 E9.87984
G1 X105.129 Y170.037 E9.89151
G1 X105.045 Y169.502 E9.90232
G1 X104.762 Y168.95 E9.9147
G1 X104.324 Y168.512 E9.92706
G1 X103.772 Y168.229 E9.93944
G1 X103.237 Y168.145 E9.95024
G1 X86.013 Y168.143 E10.29397
G1 X85.939 Y168.097 E10.29571
G1 X85.939 Y167.511 E10.3074
G1 X85.855 Y166.978 E10.31817
G1 X85.574 Y166.424 E10.33057
G1 X85.135 Y165.984 E10.34297
G1 X84.581 Y165.703 E10.35537
G1 X84.047 Y165.619 E10.36615
G1 X44.654 Y165.59 E11.15228
G1 X44.579 Y165.54 E11.15408
G1 X44.39 Y84.943 E12.76249
G1 X44.329 Y84.454 E12.77232
G1 X44.142 Y83.923 E12.78356
G1 X43.866 Y83.443 E12.79461
G1 X43.506 Y83.018 E12.80572
G1 X43.114 Y82.715 E12.81561
G1 X35.13 Y78.018 E13.00046
G1 X35.085 Y77.938 E13.0023
G1 X51.63 Y49.417 E13.6603
G1 X51.735 Y49.343 E13.66286
G1 X51.777 Y49.357 E13.66374
G1 X86.911 Y67.608 E14.45384
G1 X87.299 Y67.779 E14.4623
G1 X87.759 Y67.93 E14.47196
G1 X88.239 Y68.047 E14.48182
G1 X88.719 Y68.126 E14.49153
G1 X89.142 Y68.153 E14.49999
G1 X143.917 Y68.153 E15.59308
G1 X144.262 Y68.165 E15.59997
G1 X144.578 Y68.193 E15.6063
G1 X144.987 Y68.246 E15.61453
G1 X145.317 Y68.302 E15.62121
G1 X145.611 Y68.369 E15.62723
G1 X184.65 Y78.639 E16.4328
G1 X184.834 Y78.746 E16.43705
G1 X184.942 Y78.99 E16.44237
G1 X184.942 Y158.983 E18.03872
G1 X184.895 Y159.055 E18.04044
G1 X148.45 Y159.055 E18.76774
G1 X147.917 Y159.14 E18.77851
G1 X147.365 Y159.42 E18.79086
G1 X146.925 Y159.86 E18.80328
G1 X146.645 Y160.412 E18.81563
G1 X146.56 Y160.945 E18.8264
G1 X146.56 Y168.068 E18.96855
G1 X146.513 Y168.143 E18.97031
G1 X129.262 Y168.143 E19.31457
G1 X128.729 Y168.227 E19.32534
G1 X128.175 Y168.508 E19.33774
G1 X127.736 Y168.948 E19.35014
G1 X127.456 Y169.498 E19.36246
G1 X127.37 Y170.033 E19.37327
G1 X127.37 Y170.594 E19.38447
G1 X127.323 Y170.669 E19.38623
G1 X105.203 Y170.669 E19.82766
G0 F6000 X104.887 Y170.994
G1 F900 X104.754 Y170.813 E19.83215
G1 X104.729 Y170.651 E19.83542
G1 X104.729 Y170.068 E19.84705
G1 X104.66 Y169.627 E19.85596
G1 X104.435 Y169.188 E19.8658
G1 X104.086 Y168.839 E19.87565
G1 X103.647 Y168.614 E19.8855
G1 X103.206 Y168.545 E19.8944
G1 X85.954 Y168.543 E20.23869
G1 X85.696 Y168.467 E20.24405
G1 X85.564 Y168.286 E20.24852
G1 X85.539 Y168.128 E20.25172
G1 X85.539 Y167.542 E20.26341
G1 X85.47 Y167.103 E20.27228
G1 X85.246 Y166.662 E20.28215
G1 X84.897 Y166.312 E20.29201
G1 X84.456 Y166.088 E20.30188
G1 X84.016 Y166.019 E20.31077
G1 X44.597 Y165.99 E21.09742
G1 X44.338 Y165.913 E21.10281
G1 X44.204 Y165.728 E21.10737
G1 X44.179 Y165.572 E21.11053
G1 X43.99 Y84.968 E22.71907
G1 X43.937 Y84.546 E22.72756
G1 X43.777 Y84.091 E22.73718
G1 X43.537 Y83.674 E22.74678
G1 X43.228 Y83.309 E22.75633
G1 X42.889 Y83.047 E22.76488
G1 X34.879 Y78.335 E22.95033
G1 X34.692 Y78.136 E22.95578
G1 X34.669 Y77.907 E22.96038
G1 X34.725 Y77.761 E22.9635
G1 X51.312 Y49.168 E23.62316
G1 X51.355 Y49.128 E23.62433
G1 X51.524 Y48.967 E23.62899
G1 X51.773 Y48.934 E23.634
G1 X51.934 Y48.988 E23.63739
G1 X87.084 Y67.247 E24.42784
G1 X87.442 Y67.405 E24.43565
G1 X87.869 Y67.545 E24.44462
G1 X88.319 Y67.655 E24.45386
G1 X88.764 Y67.728 E24.46286
G1 X89.155 Y67.753 E24.47068
G1 X143.931 Y67.753 E25.5638
G1 X144.276 Y67.765 E25.57069
G1 X144.629 Y67.796 E25.57776
G1 X145.038 Y67.849 E25.58599
G1 X145.402 Y67.911 E25.59336
G1 X145.713 Y67.982 E25.59972
G1 X184.803 Y78.265 E26.40635
G1 X185.123 Y78.452 E26.41374
G1 X185.314 Y78.767 E26.42109
G1 X185.342 Y78.961 E26.425
G1 X185.342 Y159.04 E28.02307
G1 X185.265 Y159.298 E28.02844
G1 X185.085 Y159.43 E28.0329
G1 X184.957 Y159.449 E28.03548
G1 X184.924 Y159.455 E28.03615
G1 X148.482 Y159.455 E28.76339
G1 X148.042 Y159.525 E28.77228
G1 X147.603 Y159.748 E28.7821
G1 X147.253 Y160.098 E28.79198
G1 X147.03 Y160.537 E28.80181
G1 X146.96 Y160.977 E28.8107
G1 X146.96 Y168.125 E28.95334
G1 X146.884 Y168.386 E28.95877
G1 X146.704 Y168.518 E28.96322
G1 X146.542 Y168.543 E28.9665
G1 X129.293 Y168.543 E29.31072
G1 X128.854 Y168.612 E29.31959
G1 X128.413 Y168.836 E29.32946
G1 X128.064 Y169.186 E29.33932
G1 X127.841 Y169.624 E29.34913
G1 X127.77 Y170.065 E29.35804
G1 X127.77 Y170.651 E29.36974
G1 X127.693 Y170.914 E29.37521
G1 X127.514 Y171.044 E29.37962
G1 X127.352 Y171.069 E29.38289
G1 X105.147 Y171.069 E29.82602
G1 X104.887 Y170.994 E29.83142
G0 F6000 X104.86 Y171.429
;TYPE:WALL-OUTER
G1 F900 X104.648 Y171.321 E29.83616
G1 X104.477 Y171.15 E29.84099
G1 X104.369 Y170.938 E29.84574
G1 X104.329 Y170.681 E29.85093
G1 X104.329 Y170.099 E29.86254
G1 X104.275 Y169.752 E29.86955
G1 X104.108 Y169.426 E29.87686
G1 X103.848 Y169.166 E29.8842
G1 X103.522 Y168.999 E29.89151
G1 X103.175 Y168.945 E29.89852
G1 X85.922 Y168.943 E30.24282
G1 X85.671 Y168.903 E30.24789
G1 X85.457 Y168.794 E30.25268
G1 X85.288 Y168.625 E30.25745
G1 X85.179 Y168.411 E30.26225
G1 X85.139 Y168.16 E30.26732
G1 X85.139 Y167.573 E30.27903
G1 X85.085 Y167.228 E30.286
G1 X84.918 Y166.9 E30.29335
G1 X84.659 Y166.64 E30.30067
G1 X84.331 Y166.473 E30.30802
G1 X83.985 Y166.419 E30.315
G1 X44.564 Y166.39 E31.10169
G1 X44.316 Y166.35 E31.10671
G1 X44.098 Y166.239 E31.11159
G1 X43.931 Y166.072 E31.1163
G1 X43.819 Y165.853 E31.12121
G1 X43.779 Y165.606 E31.1262
G1 X43.59 Y84.994 E32.73491
G1 X43.545 Y84.638 E32.74207
G1 X43.412 Y84.259 E32.75008
G1 X43.208 Y83.905 E32.75824
G1 X42.95 Y83.6 E32.76621
G1 X42.664 Y83.379 E32.77342
G1 X34.65 Y78.665 E32.95897
G1 X34.451 Y78.501 E32.96411
G1 X34.321 Y78.297 E32.96894
G1 X34.26 Y78.066 E32.97371
G1 X34.273 Y77.821 E32.9786
G1 X34.364 Y77.586 E32.98363
G1 X50.982 Y48.939 E33.64454
G1 X51.145 Y48.738 E33.6497
G1 X51.354 Y48.6 E33.6547
G1 X51.592 Y48.531 E33.65965
G1 X51.84 Y48.535 E33.6646
G1 X52.091 Y48.619 E33.66988
G1 X87.257 Y66.886 E34.46069
G1 X87.585 Y67.031 E34.46784
G1 X87.979 Y67.16 E34.47612
G1 X88.399 Y67.263 E34.48475
G1 X88.809 Y67.33 E34.49304
G1 X89.168 Y67.353 E34.50022
G1 X143.945 Y67.353 E35.59335
G1 X144.29 Y67.365 E35.60024
G1 X144.68 Y67.399 E35.60805
G1 X145.089 Y67.452 E35.61628
G1 X145.48 Y67.519 E35.6242
G1 X145.815 Y67.595 E35.63105
G1 X184.935 Y77.886 E36.4383
G1 X185.191 Y77.996 E36.44386
G1 X185.41 Y78.169 E36.44943
G1 X185.59 Y78.403 E36.45532
G1 X185.702 Y78.657 E36.46086
G1 X185.742 Y78.93 E36.46636
G1 X185.742 Y159.072 E38.06568
G1 X185.702 Y159.321 E38.07072
G1 X185.593 Y159.536 E38.07553
G1 X185.422 Y159.707 E38.08035
G1 X185.21 Y159.815 E38.0851
G1 X184.954 Y159.855 E38.09027
G1 X148.514 Y159.855 E38.81747
G1 X148.167 Y159.91 E38.82448
G1 X147.841 Y160.076 E38.83178
G1 X147.581 Y160.336 E38.83912
G1 X147.415 Y160.662 E38.84642
G1 X147.36 Y161.009 E38.85343
G1 X147.36 Y168.155 E38.99604
G1 X147.32 Y168.412 E39.00123
G1 X147.211 Y168.625 E39.006
G1 X147.042 Y168.794 E39.01077
G1 X146.829 Y168.903 E39.01555
G1 X146.572 Y168.943 E39.02074
G1 X129.324 Y168.943 E39.36494
G1 X128.979 Y168.997 E39.37191
G1 X128.651 Y169.164 E39.37926
G1 X128.392 Y169.424 E39.38658
G1 X128.226 Y169.75 E39.39388
G1 X128.17 Y170.097 E39.40089
G1 X128.17 Y170.681 E39.41255
G1 X128.13 Y170.938 E39.41774
G1 X128.02 Y171.153 E39.42256
G1 X127.854 Y171.319 E39.42724
G1 X127.639 Y171.429 E39.43206
G1 X127.382 Y171.469 E39.43725
G1 X105.117 Y171.469 E39.88158
G1 X104.86 Y171.429 E39.88677
G0 F6000 X104.995 Y171.011
G0 X105.904 Y170.159
G0 X105.904 Y169.879
;TYPE:SKIN
G1 F900 X105.806 Y169.254 E39.89939
G1 X105.408 Y168.48 E39.91676
G1 X104.794 Y167.866 E39.93409
G1 X104.02 Y167.468 E39.95146
G1 X103.299 Y167.355 E39.96602
G1 X86.714 Y167.353 E40.29699
G1 X86.616 Y166.732 E40.30954
G1 X86.222 Y165.954 E40.32694
G1 X85.605 Y165.336 E40.34437
G1 X84.827 Y164.942 E40.36177
G1 X84.109 Y164.829 E40.37628
G1 X45.368 Y164.8 E41.14939
G1 X45.18 Y84.893 E42.74403
G1 X45.103 Y84.272 E42.75652
G1 X44.863 Y83.591 E42.77093
G1 X44.515 Y82.987 E42.78484
G1 X44.055 Y82.444 E42.79904
G1 X43.558 Y82.059 E42.81159
G1 X36.139 Y77.696 E42.98334
G1 X51.995 Y50.36 E43.61399
G1 X86.57 Y68.32 E44.39151
G1 X87.016 Y68.518 E44.40125
G1 X87.542 Y68.69 E44.41229
G1 X88.081 Y68.821 E44.42336
G1 X88.629 Y68.912 E44.43445
G1 X89.117 Y68.943 E44.4442
G1 X143.889 Y68.943 E45.53724
G1 X144.234 Y68.955 E45.54413
G1 X144.492 Y68.978 E45.5493
G1 X144.873 Y69.027 E45.55696
G1 X145.151 Y69.074 E45.56259
G1 X145.416 Y69.135 E45.56801
G1 X184.152 Y79.325 E46.36733
G1 X184.152 Y158.265 E47.94267
G1 X148.387 Y158.265 E48.6564
G1 X147.671 Y158.379 E48.67086
G1 X146.895 Y158.772 E48.68822
G1 X146.277 Y159.39 E48.70566
G1 X145.884 Y160.166 E48.72302
G1 X145.77 Y160.882 E48.73749
G1 X145.77 Y167.353 E48.86663
G1 X129.2 Y167.353 E49.1973
G1 X128.483 Y167.466 E49.21178
G1 X127.705 Y167.86 E49.22919
G1 X127.088 Y168.478 E49.24662
G1 X126.696 Y169.25 E49.26389
G1 X126.595 Y169.879 E49.27661
G1 X105.904 Y169.879 E49.68952
G1 F2100 E42.18952
G0 F6000 X105.904 Y170.159
G0 X104.304 Y169.284
G0 X103.99 Y168.97
G0 X103.597 Y168.768
G0 X85.378 Y167.554
G0 X85.316 Y167.154
G0 X85.114 Y166.758
G0 X84.801 Y166.444
G0 X84.405 Y166.242
G0 X45.844 Y165.08
G0 X45.845 Y164.639
G1 F2100 E49.68952
G1 F900 X45.527 Y164.321 E49.69849
G0 F6000 X45.526 Y163.754
G1 F900 X46.41 Y164.639 E49.72346
G0 F6000 X46.977 Y164.639
G1 F900 X45.524 Y163.187 E49.76445
G0 F6000 X45.523 Y162.62
G1 F900 X47.543 Y164.64 E49.82146
G0 F6000 X48.109 Y164.64
G1 F900 X45.522 Y162.053 E49.89447
G0 F6000 X45.52 Y161.486
G1 F900 X48.675 Y164.641 E49.98351
G0 F6000 X49.241 Y164.641
G1 F900 X45.519 Y160.919 E50.08855
G0 F6000 X45.517 Y160.352
G1 F900 X49.807 Y164.642 E50.20962
G0 F6000 X50.374 Y164.642
G1 F900 X45.516 Y159.784 E50.34673
G0 F6000 X45.515 Y159.217
G1 F900 X50.939 Y164.642 E50.49982
G0 F6000 X51.506 Y164.643
G1 F900 X45.513 Y158.65 E50.66895
G0 F6000 X45.512 Y158.084
G1 F900 X52.072 Y164.643 E50.85408
G0 F6000 X52.638 Y164.644
G1 F900 X45.511 Y157.517 E51.05522
G0 F6000 X45.51 Y156.95
G1 F900 X53.204 Y164.644 E51.27236
G0 F6000 X53.77 Y164.644
G1 F900 X45.508 Y156.383 E51.50552
G0 F6000 X45.507 Y155.815
G1 F900 X54.336 Y164.645 E51.7547
G0 F6000 X54.902 Y164.645
G1 F900 X45.505 Y155.248 E52.01991
G0 F6000 X45.504 Y154.681
G1 F900 X55.468 Y164.646 E52.30113
G0 F6000 X56.035 Y164.646
G1 F900 X45.503 Y154.114 E52.59836
G0 F6000 X45.501 Y153.547
G1 F900 X56.601 Y164.646 E52.91161
G0 F6000 X57.167 Y164.647
G1 F900 X45.5 Y152.98 E53.24088
G0 F6000 X45.499 Y152.414
G1 F900 X57.733 Y164.647 E53.58614
G0 F6000 X58.299 Y164.648
G1 F900 X45.498 Y151.846 E53.94742
G0 F6000 X45.496 Y151.279
G1 F900 X58.865 Y164.649 E54.32474
G0 F6000 X59.431 Y164.649
G1 F900 X45.495 Y150.712 E54.71806
G0 F6000 X45.493 Y150.145
G1 F900 X59.998 Y164.649 E55.12741
G0 F6000 X60.563 Y164.649
G1 F900 X45.492 Y149.578 E55.55274
G0 F6000 X45.491 Y149.011
G1 F900 X61.13 Y164.65 E55.99411
G0 F6000 X61.696 Y164.651
G1 F900 X45.489 Y148.444 E56.45151
G0 F6000 X45.488 Y147.877
G1 F900 X62.262 Y164.651 E56.9249
G0 F6000 X62.828 Y164.651
G1 F900 X45.486 Y147.31 E57.41432
G0 F6000 X45.486 Y146.743
G1 F900 X63.394 Y164.651 E57.91972
G0 F6000 X63.96 Y164.652
G1 F900 X45.484 Y146.176 E58.44115
G0 F6000 X45.483 Y145.609
G1 F900 X64.527 Y164.653 E58.97862
G0 F6000 X65.092 Y164.653
G1 F900 X45.481 Y145.042 E59.53208
G0 F6000 X45.48 Y144.475
G1 F900 X65.659 Y164.654 E60.10158
G0 F6000 X66.224 Y164.654
G1 F900 X45.478 Y143.908 E60.68707
G0 F6000 X45.477 Y143.341
G1 F900 X66.791 Y164.654 E61.28859
G0 F6000 X67.357 Y164.655
G1 F900 X45.476 Y142.774 E61.90612
G0 F6000 X45.474 Y142.206
G1 F900 X67.923 Y164.655 E62.53967
G0 F6000 X68.489 Y164.656
G1 F900 X45.474 Y141.64 E63.18922
G0 F6000 X45.472 Y141.073
G1 F900 X69.055 Y164.656 E63.85478
G0 F6000 X69.621 Y164.656
G1 F900 X45.471 Y140.506 E64.53635
G0 F6000 X45.469 Y139.939
G1 F900 X70.188 Y164.657 E65.23396
G0 F6000 X70.753 Y164.657
G1 F900 X45.468 Y139.372 E65.94756
G0 F6000 X45.466 Y138.805
G1 F900 X71.32 Y164.658 E66.6772
G0 F6000 X71.886 Y164.659
G1 F900 X45.465 Y138.237 E67.42287
G0 F6000 X45.464 Y137.67
G1 F900 X72.452 Y164.659 E68.18454
G0 F6000 X73.018 Y164.659
G1 F900 X45.462 Y137.103 E68.96223
G0 F6000 X45.461 Y136.536
G1 F900 X73.584 Y164.659 E69.75593
G0 F6000 X74.15 Y164.66
G1 F900 X45.46 Y135.97 E70.56562
G0 F6000 X45.459 Y135.403
G1 F900 X74.717 Y164.661 E71.39134
G0 F6000 X75.282 Y164.661
G1 F900 X45.457 Y134.836 E72.23307
G0 F6000 X45.456 Y134.268
G1 F900 X75.849 Y164.661 E73.09083
G0 F6000 X76.414 Y164.661
G1 F900 X45.454 Y133.701 E73.96458
G0 F6000 X45.453 Y133.134
G1 F900 X76.981 Y164.662 E74.85437
G0 F6000 X77.547 Y164.663
G1 F900 X45.452 Y132.567 E75.76018
G0 F6000 X45.45 Y132
G1 F900 X78.113 Y164.663 E76.682
G0 F6000 X78.679 Y164.663
G1 F900 X45.449 Y131.433 E77.61982
G0 F6000 X45.447 Y130.866
G1 F900 X79.245 Y164.663 E78.57366
G0 F6000 X79.811 Y164.664
G1 F900 X45.447 Y130.299 E79.5435
G0 F6000 X45.445 Y129.732
G1 F900 X80.378 Y164.665 E80.52938
G0 F6000 X80.943 Y164.665
G1 F900 X45.444 Y129.165 E81.53126
G0 F6000 X45.442 Y128.598
G1 F900 X81.51 Y164.666 E82.54917
G0 F6000 X82.076 Y164.666
G1 F900 X45.441 Y128.031 E83.58309
G0 F6000 X45.44 Y127.464
G1 F900 X82.642 Y164.666 E84.63301
G0 F6000 X83.208 Y164.667
G1 F900 X45.438 Y126.897 E85.69896
G0 F6000 X45.437 Y126.33
G1 F900 X83.774 Y164.667 E86.78092
