;FLAVOR:Marlin
;TIME:23304
;Filament used: 10.3665m
;Layer height: 0.12
;MINX:34.108
;MINY:48.239
;MINZ:0.12
;MAXX:185.892
;MAXY:171.761
;MAXZ:12
;Generated with Cura_SteamEngine 5.0.0
M140 S70
M105
M190 S70
M104 S220
M105
M109 S220
M82 ;absolute extrusion mode
; Ender 3 Custom Start G-code
G92 E0 ; Reset Extruder
G28 ; Home all axes
G1 Z2.0 F3000 ; Move Z Axis up little to prevent scratching of Heat Bed
G1 X0.1 Y20 Z0.3 F5000.0 ; Move to start position
G1 X0.1 Y200.0 Z0.3 F1500.0 E15 ; Draw the first line
G1 X0.4 Y200.0 Z0.3 F5000.0 ; Move to side a little
G1 X0.4 Y20 Z0.3 F1500.0 E30 ; Draw the second line
G92 E0 ; Reset Extruder
G1 Z2.0 F3000 ; Move Z Axis up little to prevent scratching of Heat Bed
G1 X5 Y20 Z0.3 F5000.0 ; Move over to prevent blob squish
G92 E0
G92 E0
G1 F2700 E-5
;LAYER_COUNT:100
;LAYER:0
M107
;MESH:SofleBaseLeft.stl
G0 F6000 X114.507 Y171.761 Z0.12
;TYPE:WALL-OUTER
G1 F2700 E0
G1 F900 X114.775 Y171.737 E0.00537
G1 X115.172 Y171.65 E0.01348
G1 X115.498 Y171.517 E0.02051
G1 X115.787 Y171.342 E0.02725
G1 X116.055 Y171.116 E0.03424
G1 X116.277 Y170.859 E0.04102
G1 X116.459 Y170.563 E0.04796
G1 X116.591 Y170.248 E0.05477
G1 X116.672 Y169.92 E0.06151
G1 X116.707 Y169.583 E0.06828
G1 X116.749 Y169.341 E0.07318
G1 X116.897 Y169.261 E0.07653
G1 X133.554 Y169.257 E0.40894
G1 X133.813 Y169.228 E0.41414
G1 X134.07 Y169.184 E0.41935
G1 X134.43 Y169.056 E0.42697
G1 X134.763 Y168.866 E0.43462
G1 X135.054 Y168.623 E0.44219
G1 X135.306 Y168.328 E0.44993
G1 X135.498 Y167.999 E0.45753
G1 X135.63 Y167.64 E0.46517
G1 X135.7 Y167.258 E0.47292
G1 X135.71 Y166.955 E0.47897
G1 X135.786 Y166.804 E0.48234
G1 X135.909 Y166.762 E0.48493
G1 X174.346 Y166.732 E1.25199
G1 X174.743 Y166.696 E1.25994
G1 X175.131 Y166.595 E1.26794
G1 X175.495 Y166.428 E1.27593
G1 X175.826 Y166.2 E1.28395
G1 X176.111 Y165.916 E1.29198
G1 X176.345 Y165.588 E1.30002
G1 X176.517 Y165.229 E1.30797
G1 X176.622 Y164.84 E1.31601
G1 X176.649 Y164.55 E1.32182
G1 X176.662 Y164.31 E1.32662
G1 X176.725 Y120.431 E2.20227
G1 X176.787 Y112.307 E2.3644
G1 X176.849 Y84.75 E2.91433
G1 X176.936 Y84.604 E2.91772
G1 X184.744 Y80.009 E3.09852
G1 X185.039 Y79.804 E3.10569
G1 X185.3 Y79.555 E3.11289
G1 X185.52 Y79.266 E3.12014
G1 X185.691 Y78.948 E3.12734
G1 X185.812 Y78.607 E3.13456
G1 X185.879 Y78.25 E3.14181
G1 X185.887 Y77.891 E3.14898
G1 X185.841 Y77.53 E3.15624
G1 X185.74 Y77.184 E3.16343
G1 X185.581 Y76.852 E3.17078
G1 X169.684 Y49.445 E3.80306
G1 X169.48 Y49.149 E3.81023
G1 X169.229 Y48.882 E3.81755
G1 X168.942 Y48.657 E3.82483
G1 X168.616 Y48.472 E3.83231
G1 X168.273 Y48.343 E3.83962
G1 X167.907 Y48.264 E3.84709
G1 X167.541 Y48.24 E3.85441
G1 X167.173 Y48.274 E3.86179
G1 X166.818 Y48.36 E3.86907
G1 X166.476 Y48.504 E3.87648
G1 X131.513 Y66.663 E4.6627
G1 X131.262 Y66.68 E4.66772
G1 X77.297 Y66.679 E5.74465
G1 X76.956 Y66.686 E5.75146
G1 X76.349 Y66.723 E5.76359
G1 X75.68 Y66.79 E5.77701
G1 X74.997 Y66.881 E5.79076
G1 X74.349 Y66.992 E5.80388
G1 X73.781 Y67.114 E5.81547
G1 X36.384 Y76.95 E6.58715
G1 X36.038 Y77.068 E6.59445
G1 X35.693 Y77.242 E6.60216
G1 X35.362 Y77.469 E6.61017
G1 X35.057 Y77.739 E6.6183
G1 X34.784 Y78.05 E6.62656
G1 X34.551 Y78.393 E6.63483
G1 X34.361 Y78.757 E6.64302
G1 X34.225 Y79.135 E6.65104
G1 X34.139 Y79.512 E6.65876
G1 X34.108 Y79.889 E6.66631
G1 X34.108 Y157.954 E8.22418
G1 X34.137 Y158.31 E8.23131
G1 X34.219 Y158.66 E8.23848
G1 X34.356 Y158.995 E8.2457
G1 X34.544 Y159.303 E8.2529
G1 X34.774 Y159.58 E8.26009
G1 X35.048 Y159.815 E8.26729
G1 X35.355 Y160.004 E8.27449
G1 X35.688 Y160.143 E8.28169
G1 X36.037 Y160.23 E8.28887
G1 X36.405 Y160.261 E8.29624
G1 X71.937 Y160.262 E9.00531
G1 X72.078 Y160.351 E9.00864
G1 X72.11 Y160.461 E9.01093
G1 X72.11 Y166.952 E9.14046
G1 X72.139 Y167.307 E9.14757
G1 X72.22 Y167.659 E9.15478
G1 X72.357 Y167.993 E9.16198
G1 X72.545 Y168.301 E9.16918
G1 X72.775 Y168.578 E9.17637
G1 X73.049 Y168.812 E9.18356
G1 X73.357 Y169.002 E9.19078
G1 X73.688 Y169.141 E9.19795
G1 X74.039 Y169.227 E9.20516
G1 X74.407 Y169.259 E9.21253
G1 X90.936 Y169.26 E9.54238
G1 X91.068 Y169.337 E9.54543
G1 X91.119 Y169.618 E9.55113
G1 X91.137 Y169.892 E9.55661
G1 X91.215 Y170.227 E9.56348
G1 X91.347 Y170.55 E9.57044
G1 X91.524 Y170.844 E9.57729
G1 X91.746 Y171.106 E9.58414
G1 X92.01 Y171.333 E9.59109
G1 X92.303 Y171.515 E9.59797
G1 X92.618 Y171.647 E9.60479
G1 X92.956 Y171.73 E9.61173
G1 X93.308 Y171.761 E9.61879
G1 X114.507 Y171.761 E10.04183
G0 F6000 X114.498 Y171.361
;TYPE:WALL-INNER
G1 F900 X114.761 Y171.334 E10.04711
G1 X115.052 Y171.268 E10.05307
G1 X115.318 Y171.16 E10.05879
G1 X115.555 Y171.016 E10.06433
G1 X115.773 Y170.832 E10.07002
G1 X115.955 Y170.622 E10.07557
G1 X116.103 Y170.381 E10.08121
G1 X116.211 Y170.124 E10.08677
G1 X116.278 Y169.854 E10.09233
G1 X116.307 Y169.573 E10.09796
G1 X116.335 Y169.288 E10.10368
G1 X116.472 Y169.05 E10.10916
G1 X116.687 Y168.903 E10.11436
G1 X116.909 Y168.861 E10.11886
G1 X133.536 Y168.857 E10.45067
G1 X133.812 Y168.823 E10.45622
G1 X134.113 Y168.744 E10.46243
G1 X134.396 Y168.615 E10.46864
G1 X134.654 Y168.435 E10.47492
G1 X134.868 Y168.225 E10.4809
G1 X135.057 Y167.961 E10.48738
G1 X135.188 Y167.684 E10.4935
G1 X135.269 Y167.384 E10.4997
G1 X135.305 Y167.079 E10.50583
G1 X135.335 Y166.789 E10.51164
G1 X135.468 Y166.555 E10.51702
G1 X135.683 Y166.406 E10.52224
G1 X135.909 Y166.362 E10.52683
G1 X174.328 Y166.332 E11.29352
G1 X174.675 Y166.3 E11.30048
G1 X174.996 Y166.217 E11.30709
G1 X175.297 Y166.079 E11.3137
G1 X175.569 Y165.891 E11.3203
G1 X175.805 Y165.656 E11.32695
G1 X175.999 Y165.384 E11.33361
G1 X176.14 Y165.089 E11.34014
G1 X176.227 Y164.768 E11.34678
G1 X176.251 Y164.511 E11.35193
G1 X176.262 Y164.31 E11.35594
G1 X176.325 Y120.428 E12.23166
G1 X176.387 Y112.306 E12.39375
G1 X176.449 Y84.749 E12.94368
G1 X176.511 Y84.503 E12.94874
G1 X176.681 Y84.295 E12.9541
G1 X176.744 Y84.252 E12.95562
G1 X184.528 Y79.672 E13.13586
G1 X184.785 Y79.493 E13.14211
G1 X185.001 Y79.287 E13.14806
G1 X185.183 Y79.049 E13.15404
G1 X185.324 Y78.786 E13.16
G1 X185.424 Y78.503 E13.16599
G1 X185.479 Y78.208 E13.17197
G1 X185.486 Y77.912 E13.17788
G1 X185.448 Y77.612 E13.18392
G1 X185.365 Y77.327 E13.18984
G1 X185.227 Y77.039 E13.19621
G1 X169.346 Y49.659 E13.82787
G1 X169.168 Y49.401 E13.83413
G1 X168.959 Y49.178 E13.84023
G1 X168.719 Y48.99 E13.84631
G1 X168.446 Y48.836 E13.85256
G1 X168.16 Y48.728 E13.85867
G1 X167.851 Y48.662 E13.86497
G1 X167.547 Y48.642 E13.87105
G1 X167.239 Y48.67 E13.87722
G1 X166.943 Y48.741 E13.8833
G1 X166.646 Y48.866 E13.88973
G1 X131.683 Y67.025 E14.67595
G1 X131.434 Y67.08 E14.68104
G1 X77.301 Y67.079 E15.76132
G1 X76.972 Y67.086 E15.76789
G1 X76.381 Y67.122 E15.7797
G1 X75.726 Y67.188 E15.79284
G1 X75.057 Y67.277 E15.80631
G1 X74.425 Y67.385 E15.8191
G1 X73.874 Y67.503 E15.83035
G1 X36.5 Y77.333 E16.60155
G1 X36.194 Y77.438 E16.60801
G1 X35.897 Y77.587 E16.61464
G1 X35.608 Y77.785 E16.62163
G1 X35.341 Y78.021 E16.62874
G1 X35.101 Y78.295 E16.63601
G1 X34.895 Y78.599 E16.64334
G1 X34.728 Y78.918 E16.65052
G1 X34.609 Y79.248 E16.65753
G1 X34.535 Y79.573 E16.66418
G1 X34.508 Y79.905 E16.67082
G1 X34.508 Y157.938 E18.22806
G1 X34.533 Y158.248 E18.23426
G1 X34.601 Y158.538 E18.24021
G1 X34.714 Y158.814 E18.24616
G1 X34.87 Y159.069 E18.25212
G1 X35.06 Y159.298 E18.25806
G1 X35.285 Y159.491 E18.26398
G1 X35.538 Y159.647 E18.26991
G1 X35.814 Y159.762 E18.27588
G1 X36.102 Y159.834 E18.2818
G1 X36.421 Y159.861 E18.28819
G1 X71.957 Y159.862 E18.99735
G1 X72.2 Y159.935 E19.00241
G1 X72.399 Y160.112 E19.00773
G1 X72.503 Y160.367 E19.01322
G1 X72.51 Y160.461 E19.0151
G1 X72.51 Y166.936 E19.14432
G1 X72.535 Y167.246 E19.15053
G1 X72.602 Y167.537 E19.15649
G1 X72.715 Y167.812 E19.16242
G1 X72.871 Y168.067 E19.16838
G1 X73.061 Y168.296 E19.17432
G1 X73.285 Y168.488 E19.18021
G1 X73.54 Y168.645 E19.18619
G1 X73.814 Y168.76 E19.19212
G1 X74.104 Y168.831 E19.19807
G1 X74.424 Y168.859 E19.20448
G1 X90.957 Y168.86 E19.53442
G1 X91.217 Y168.944 E19.53987
G1 X91.386 Y169.095 E19.54439
G1 X91.478 Y169.27 E19.54834
G1 X91.518 Y169.592 E19.55481
G1 X91.566 Y169.971 E19.56244
G1 X91.649 Y170.232 E19.5679
G1 X91.775 Y170.485 E19.57354
G1 X91.94 Y170.716 E19.57921
G1 X92.135 Y170.913 E19.58474
G1 X92.362 Y171.08 E19.59036
G1 X92.62 Y171.214 E19.59617
G1 X92.875 Y171.298 E19.60152
G1 X93.162 Y171.346 E19.60733
G1 X93.577 Y171.361 E19.61562
G1 X114.498 Y171.361 E20.03312
G0 F6000 X114.489 Y170.961
G1 F900 X114.832 Y170.918 E20.04002
G1 X115.137 Y170.803 E20.04652
G1 X115.413 Y170.626 E20.05307
G1 X115.632 Y170.385 E20.05956
G1 X115.798 Y170.101 E20.06613
G1 X115.883 Y169.788 E20.0726
G1 X115.907 Y169.531 E20.07775
G1 X115.952 Y169.173 E20.08495
G1 X116.106 Y168.865 E20.09183
G1 X116.302 Y168.667 E20.09739
G1 X116.539 Y168.532 E20.10283
G1 X116.784 Y168.468 E20.10788
G1 X116.909 Y168.461 E20.11038
G1 X133.518 Y168.457 E20.44183
G1 X133.866 Y168.407 E20.44885
G1 X134.198 Y168.267 E20.45604
G1 X134.489 Y168.052 E20.46326
G1 X134.712 Y167.759 E20.47061
G1 X134.855 Y167.428 E20.4778
G1 X134.902 Y167.173 E20.48298
G1 X134.951 Y166.674 E20.49298
G1 X135.102 Y166.372 E20.49972
G1 X135.294 Y166.173 E20.50524
G1 X135.509 Y166.045 E20.51023
G1 X135.762 Y165.972 E20.51549
G1 X135.909 Y165.962 E20.51843
G1 X174.31 Y165.932 E21.28476
G1 X174.607 Y165.904 E21.29071
G1 X174.862 Y165.839 E21.29596
G1 X175.098 Y165.73 E21.30115
G1 X175.312 Y165.582 E21.30634
G1 X175.499 Y165.397 E21.31159
G1 X175.653 Y165.18 E21.3169
G1 X175.764 Y164.949 E21.32202
G1 X175.832 Y164.696 E21.32725
G1 X175.862 Y164.395 E21.33328
G1 X175.925 Y120.425 E22.21075
G1 X175.987 Y112.305 E22.3728
G1 X176.049 Y84.736 E22.92297
G1 X176.096 Y84.466 E22.92844
G1 X176.211 Y84.223 E22.93381
G1 X176.392 Y84.015 E22.93931
G1 X176.541 Y83.908 E22.94297
G1 X184.312 Y79.335 E23.12291
G1 X184.531 Y79.183 E23.12823
G1 X184.774 Y78.926 E23.13529
G1 X184.957 Y78.624 E23.14233
G1 X185.057 Y78.285 E23.14939
G1 X185.085 Y77.933 E23.15643
G1 X185.023 Y77.584 E23.16351
G1 X184.901 Y77.283 E23.16999
G1 X184.838 Y77.164 E23.17267
G1 X169.008 Y49.873 E23.80228
G1 X168.856 Y49.653 E23.80762
G1 X168.592 Y49.399 E23.81493
G1 X168.276 Y49.199 E23.82239
G1 X167.932 Y49.088 E23.82961
G1 X167.678 Y49.052 E23.83473
G1 X167.426 Y49.055 E23.83976
G1 X167.069 Y49.122 E23.84701
G1 X166.816 Y49.228 E23.85248
G1 X131.872 Y67.379 E24.63829
G1 X131.629 Y67.46 E24.6434
G1 X131.262 Y67.48 E24.65073
G1 X77.305 Y67.479 E25.7275
G1 X76.988 Y67.486 E25.73383
G1 X76.413 Y67.52 E25.74533
G1 X75.773 Y67.585 E25.75816
G1 X75.117 Y67.672 E25.77137
G1 X74.501 Y67.778 E25.78384
G1 X73.967 Y67.892 E25.79474
G1 X36.616 Y77.717 E26.56548
G1 X36.349 Y77.808 E26.57111
G1 X36.101 Y77.933 E26.57665
G1 X35.854 Y78.101 E26.58261
G1 X35.625 Y78.304 E26.58872
G1 X35.418 Y78.54 E26.59498
G1 X35.239 Y78.805 E26.60136
G1 X35.096 Y79.079 E26.60753
G1 X34.994 Y79.361 E26.61352
G1 X34.932 Y79.633 E26.61908
G1 X34.908 Y79.921 E26.62485
G1 X34.908 Y157.922 E28.18144
G1 X34.93 Y158.187 E28.18675
G1 X35.027 Y158.524 E28.19375
G1 X35.196 Y158.835 E28.20081
G1 X35.436 Y159.093 E28.20784
G1 X35.722 Y159.29 E28.21477
G1 X36.049 Y159.408 E28.22171
G1 X36.373 Y159.455 E28.22825
G1 X36.51 Y159.461 E28.23098
G1 X71.97 Y159.462 E28.93862
G1 X72.227 Y159.512 E28.94385
G1 X72.461 Y159.625 E28.94904
G1 X72.652 Y159.789 E28.95406
G1 X72.81 Y160.023 E28.95969
G1 X72.898 Y160.304 E28.96557
G1 X72.91 Y160.461 E28.96871
G1 X72.91 Y166.92 E29.09761
G1 X72.932 Y167.185 E29.10292
G1 X73.029 Y167.524 E29.10995
G1 X73.197 Y167.833 E29.11697
G1 X73.436 Y168.091 E29.12399
G1 X73.723 Y168.287 E29.13092
G1 X74.053 Y168.406 E29.13793
G1 X74.373 Y168.452 E29.14438
G1 X74.512 Y168.459 E29.14715
G1 X90.97 Y168.46 E29.47559
G1 X91.217 Y168.507 E29.48061
G1 X91.465 Y168.628 E29.48612
G1 X91.704 Y168.852 E29.49265
G1 X91.858 Y169.144 E29.49924
G1 X91.906 Y169.394 E29.50432
G1 X91.931 Y169.775 E29.51194
G1 X92.019 Y170.081 E29.51829
G1 X92.176 Y170.376 E29.52496
G1 X92.396 Y170.609 E29.53136
G1 X92.671 Y170.802 E29.53806
G1 X92.971 Y170.91 E29.54443
G1 X93.279 Y170.955 E29.55064
G1 X93.577 Y170.961 E29.55659
G1 X114.489 Y170.961 E29.97391
G0 F6000 X114.448 Y170.6
;TYPE:SKIN
G1 F900 X114.734 Y170.571 E29.97964
G1 X114.979 Y170.477 E29.98488
G1 X115.266 Y170.251 E29.99217
G1 X115.463 Y169.967 E29.99907
G1 X115.53 Y169.705 E30.00446
G1 X115.552 Y169.407 E30.01043
G1 X115.602 Y169.089 E30.01685
G1 X115.704 Y168.832 E30.02237
G1 X115.897 Y168.553 E30.02914
G1 X116.185 Y168.309 E30.03667
G1 X116.494 Y168.167 E30.04346
G1 X116.783 Y168.107 E30.04935
G1 X116.82 Y168.104 E30.05009
G1 X133.437 Y168.098 E30.3817
G1 X133.726 Y168.058 E30.38752
G1 X133.962 Y167.974 E30.39252
G1 X134.208 Y167.804 E30.39849
G1 X134.441 Y167.507 E30.40602
G1 X134.526 Y167.213 E30.41213
G1 X134.55 Y166.91 E30.4182
G1 X134.6 Y166.596 E30.42454
G1 X134.702 Y166.338 E30.43008
G1 X134.894 Y166.058 E30.43685
G1 X135.173 Y165.819 E30.44418
G1 X135.469 Y165.677 E30.45073
G1 X135.782 Y165.608 E30.45713
G1 X135.821 Y165.604 E30.45791
G1 X174.231 Y165.572 E31.22443
G1 X174.525 Y165.54 E31.23033
G1 X174.877 Y165.423 E31.23773
G1 X175.097 Y165.272 E31.24306
G1 X175.306 Y165.027 E31.24948
G1 X175.422 Y164.784 E31.25486
G1 X175.489 Y164.494 E31.2608
G1 X175.502 Y164.258 E31.26551
G1 X175.689 Y84.716 E32.85286
G1 X175.736 Y84.405 E32.85914
G1 X175.846 Y84.132 E32.86501
G1 X176.038 Y83.861 E32.87164
G1 X176.265 Y83.659 E32.87771
G1 X176.294 Y83.638 E32.87842
G1 X184.163 Y78.999 E33.06071
G1 X184.363 Y78.841 E33.0658
G1 X184.541 Y78.633 E33.07126
G1 X184.659 Y78.381 E33.07681
G1 X184.719 Y78.126 E33.08204
G1 X184.712 Y77.856 E33.08743
G1 X184.65 Y77.594 E33.0928
G1 X184.531 Y77.357 E33.0981
G1 X168.733 Y50.117 E33.72651
G1 X168.576 Y49.884 E33.73211
G1 X168.368 Y49.683 E33.73789
G1 X168.124 Y49.53 E33.74363
G1 X167.742 Y49.418 E33.75158
G1 X167.459 Y49.414 E33.75722
G1 X167.177 Y49.469 E33.76296
G1 X166.923 Y49.58 E33.76849
G1 X132.045 Y67.694 E34.55279
G1 X131.809 Y67.788 E34.55786
G1 X131.53 Y67.836 E34.56351
G1 X131.497 Y67.839 E34.56417
G1 X77.424 Y67.838 E35.64326
G1 X77.004 Y67.846 E35.65164
G1 X76.443 Y67.88 E35.66285
G1 X75.816 Y67.943 E35.67543
G1 X75.172 Y68.028 E35.68839
G1 X74.569 Y68.132 E35.7006
G1 X74.05 Y68.244 E35.7112
G1 X36.866 Y78.021 E36.47847
G1 X36.604 Y78.101 E36.48394
G1 X36.274 Y78.26 E36.49125
G1 X35.973 Y78.477 E36.49865
G1 X35.787 Y78.667 E36.50396
G1 X35.615 Y78.896 E36.50967
G1 X35.439 Y79.22 E36.51703
G1 X35.338 Y79.511 E36.52318
G1 X35.275 Y79.862 E36.53029
G1 X35.269 Y79.937 E36.5318
G1 X35.268 Y157.906 E38.08775
G1 X35.322 Y158.29 E38.09549
G1 X35.49 Y158.625 E38.10297
G1 X35.672 Y158.819 E38.10828
G1 X35.886 Y158.967 E38.11347
G1 X36.138 Y159.056 E38.1188
G1 X36.399 Y159.096 E38.12407
G1 X72.003 Y159.104 E38.83459
G1 X72.287 Y159.152 E38.84034
G1 X72.562 Y159.268 E38.84629
G1 X72.812 Y159.442 E38.85237
G1 X73.032 Y159.691 E38.859
G1 X73.179 Y159.975 E38.86538
G1 X73.262 Y160.316 E38.87239
G1 X73.267 Y160.36 E38.87327
G1 X73.275 Y166.958 E39.00494
G1 X73.311 Y167.218 E39.01018
G1 X73.395 Y167.466 E39.0154
G1 X73.547 Y167.69 E39.02081
G1 X73.735 Y167.871 E39.02601
G1 X73.968 Y167.999 E39.03132
G1 X74.234 Y168.079 E39.03686
G1 X74.511 Y168.099 E39.04241
G1 X90.973 Y168.1 E39.37092
G1 X91.202 Y168.13 E39.37553
G1 X91.482 Y168.224 E39.38143
G1 X91.722 Y168.368 E39.38701
G1 X91.973 Y168.611 E39.39398
G1 X92.189 Y169.003 E39.40291
G1 X92.263 Y169.346 E39.40992
G1 X92.289 Y169.713 E39.41726
G1 X92.36 Y169.957 E39.42233
G1 X92.562 Y170.259 E39.42958
G1 X92.836 Y170.479 E39.43659
G1 X93.166 Y170.574 E39.44345
G1 X93.574 Y170.596 E39.4516
G1 X114.448 Y170.6 E39.86816
G1 F2700 E34.86816
G0 F6000 X114.442 Y170.859
G0 X93.114 Y170.779
G0 X92.581 Y170.556
G0 X92.209 Y170.117
G0 X91.223 Y168.341
G0 X74.195 Y168.276
G0 X73.617 Y168.034
G0 X73.217 Y167.558
G0 X72.559 Y164.665
G0 X72.548 Y159.823
G0 X46.147 Y159.839
G0 X35.864 Y159.241
G1 F2700 E39.86816
G0 F6000 X36.049 Y158.802
G1 F900 X35.554 Y158.308 E39.88212
G0 F6000 X35.471 Y157.659
G1 F900 X36.707 Y158.895 E39.917
G0 F6000 X37.273 Y158.895
G1 F900 X35.471 Y157.093 E39.96786
G0 F6000 X35.471 Y156.527
